;FLAVOR:Marlin
;TIME:4200
;Filament used: 5.55142m
;Layer height: 0.28
;MINX:54
;MINY:92.65
;MINZ:0.28
;MAXX:166
;MAXY:127.35
;MAXZ:36.12
;Generated with Cura_SteamEngine 4.12.1
M140 S80
M105
M190 S80
M104 S235
M105
M109 S235
M82 ;absolute extrusion mode
; Ender 3 Custom Start G-code
G92 E0 ; Reset Extruder
G28 ; Home all axes
G1 Z2.0 F3000 ; Move Z Axis up little to prevent scratching of Heat Bed
G1 X0.1 Y20 Z0.3 F5000.0 ; Move to start position
G1 X0.1 Y200.0 Z0.3 F1500.0 E15 ; Draw the first line
G1 X0.4 Y200.0 Z0.3 F5000.0 ; Move to side a little
G1 X0.4 Y20 Z0.3 F1500.0 E30 ; Draw the second line
G92 E0 ; Reset Extruder
G1 Z2.0 F3000 ; Move Z Axis up little to prevent scratching of Heat Bed
G1 X5 Y20 Z0.3 F5000.0 ; Move over to prevent blob squish
G92 E0
G92 E0
G1 F2400 E-10
;LAYER_COUNT:129
;LAYER:0
M107
G0 F6000 X59.412 Y94.189 Z0.28
;TYPE:SKIRT
G1 F2400 E0
G1 F900 X60.239 Y93.747 E0.04366
G1 X61.101 Y93.377 E0.08734
G1 X61.991 Y93.081 E0.13102
G1 X62.903 Y92.863 E0.17468
G1 X63.83 Y92.722 E0.21834
G1 X64.701 Y92.663 E0.25899
G1 X65.022 Y92.654 E0.27394
G1 X65.33 Y92.65 E0.28829
G1 X154.293 Y92.65 E4.43078
G1 X155.149 Y92.661 E4.47064
G1 X156.085 Y92.715 E4.5143
G1 X157.013 Y92.847 E4.55794
G1 X157.927 Y93.059 E4.60163
G1 X158.819 Y93.348 E4.64529
G1 X159.684 Y93.711 E4.68897
G1 X160.514 Y94.147 E4.73263
G1 X161.305 Y94.652 E4.77633
G1 X162.049 Y95.223 E4.82
G1 X162.742 Y95.855 E4.86367
G1 X163.379 Y96.543 E4.90733
G1 X163.954 Y97.284 E4.95101
G1 X164.465 Y98.07 E4.99466
G1 X164.907 Y98.898 E5.03836
G1 X165.276 Y99.76 E5.08203
G1 X165.571 Y100.65 E5.12569
G1 X165.789 Y101.562 E5.16935
G1 X165.929 Y102.49 E5.21305
G1 X165.987 Y103.351 E5.25323
G1 X165.996 Y103.671 E5.26814
G1 X166 Y103.98 E5.28253
G1 X165.999 Y115.75 E5.83059
G1 X165.99 Y116.469 E5.86407
G1 X165.938 Y117.405 E5.90772
G1 X165.807 Y118.334 E5.95141
G1 X165.597 Y119.248 E5.99508
G1 X165.31 Y120.141 E6.03875
G1 X164.948 Y121.006 E6.08242
G1 X164.514 Y121.837 E6.12607
G1 X164.01 Y122.628 E6.16974
G1 X163.441 Y123.374 E6.21343
G1 X162.81 Y124.068 E6.25711
G1 X162.123 Y124.706 E6.30076
G1 X161.384 Y125.283 E6.34442
G1 X160.598 Y125.795 E6.3881
G1 X159.771 Y126.238 E6.43179
G1 X158.91 Y126.609 E6.47544
G1 X158.02 Y126.906 E6.51913
G1 X157.108 Y127.125 E6.5628
G1 X156.181 Y127.266 E6.60647
G1 X155.254 Y127.328 E6.64973
G1 X154.46 Y127.347 E6.68671
G1 X154.197 Y127.35 E6.69896
G1 X65.549 Y127.349 E10.82678
G1 X64.851 Y127.339 E10.85928
G1 X63.915 Y127.285 E10.90294
G1 X62.987 Y127.153 E10.94659
G1 X62.073 Y126.941 E10.99028
G1 X61.181 Y126.652 E11.03394
G1 X60.316 Y126.289 E11.07762
G1 X59.486 Y125.853 E11.12127
G1 X58.695 Y125.348 E11.16497
G1 X57.951 Y124.777 E11.20864
G1 X57.258 Y124.145 E11.25232
G1 X56.621 Y123.457 E11.29598
G1 X56.046 Y122.716 E11.33965
G1 X55.535 Y121.93 E11.3833
G1 X55.093 Y121.102 E11.42701
G1 X54.724 Y120.24 E11.47067
G1 X54.429 Y119.35 E11.51433
G1 X54.211 Y118.438 E11.55799
G1 X54.071 Y117.51 E11.60169
G1 X54.013 Y116.638 E11.64239
G1 X54.004 Y116.306 E11.65785
G1 X54 Y116.008 E11.67173
G1 X54.001 Y104.175 E12.22272
G1 X54.01 Y103.51 E12.25369
G1 X54.063 Y102.574 E12.29734
G1 X54.195 Y101.645 E12.34104
G1 X54.406 Y100.731 E12.38472
G1 X54.694 Y99.839 E12.42836
G1 X55.057 Y98.974 E12.47204
G1 X55.492 Y98.143 E12.51572
G1 X55.996 Y97.353 E12.55935
G1 X56.566 Y96.608 E12.60303
G1 X57.198 Y95.914 E12.64674
G1 X57.886 Y95.277 E12.6904
G1 X58.626 Y94.701 E12.73407
G1 X59.412 Y94.189 E12.77774
G0 F6000 X59.791 Y94.432
G1 F900 X60.611 Y94.014 E12.8206
G1 X61.465 Y93.669 E12.86349
G1 X62.345 Y93.399 E12.90635
G1 X63.245 Y93.207 E12.9492
G1 X64.159 Y93.093 E12.99209
G1 X64.712 Y93.063 E13.01788
G1 X65.033 Y93.054 E13.03283
G1 X65.33 Y93.05 E13.04666
G1 X154.293 Y93.05 E17.18915
G1 X155.143 Y93.061 E17.22874
G1 X156.062 Y93.114 E17.2716
G1 X156.973 Y93.247 E17.31447
G1 X157.869 Y93.458 E17.35733
G1 X158.743 Y93.746 E17.40018
G1 X159.59 Y94.109 E17.44309
G1 X160.401 Y94.544 E17.48594
G1 X161.171 Y95.048 E17.5288
G1 X161.895 Y95.617 E17.57167
G1 X162.567 Y96.247 E17.61457
G1 X163.182 Y96.932 E17.65743
G1 X163.735 Y97.668 E17.7003
G1 X164.222 Y98.449 E17.74316
G1 X164.639 Y99.27 E17.78603
G1 X164.984 Y100.124 E17.82892
G1 X165.253 Y101.004 E17.87177
G1 X165.445 Y101.905 E17.91467
G1 X165.558 Y102.818 E17.9575
G1 X165.587 Y103.362 E17.98287
G1 X165.596 Y103.682 E17.99778
G1 X165.6 Y103.98 E18.01166
G1 X165.599 Y115.745 E18.55948
G1 X165.59 Y116.464 E18.59297
G1 X165.539 Y117.383 E18.63582
G1 X165.408 Y118.294 E18.67868
G1 X165.198 Y119.191 E18.72158
G1 X164.911 Y120.066 E18.76446
G1 X164.55 Y120.912 E18.80729
G1 X164.116 Y121.724 E18.85016
G1 X163.614 Y122.496 E18.89304
G1 X163.046 Y123.221 E18.93592
G1 X162.418 Y123.894 E18.97879
G1 X161.734 Y124.51 E19.02165
G1 X160.999 Y125.064 E19.06451
G1 X160.218 Y125.552 E19.10739
G1 X159.398 Y125.971 E19.15027
G1 X158.545 Y126.317 E19.19313
G1 X157.665 Y126.588 E19.236
G1 X156.765 Y126.781 E19.27886
G1 X155.852 Y126.896 E19.32171
G1 X155.245 Y126.928 E19.35002
G1 X154.451 Y126.947 E19.387
G1 X154.197 Y126.95 E19.39883
G1 X65.555 Y126.949 E23.52637
G1 X64.857 Y126.939 E23.55888
G1 X63.938 Y126.886 E23.60174
G1 X63.027 Y126.753 E23.64461
G1 X62.131 Y126.542 E23.68747
G1 X61.257 Y126.254 E23.73032
G1 X60.41 Y125.891 E23.77323
G1 X59.599 Y125.456 E23.81608
G1 X58.829 Y124.952 E23.85894
G1 X58.105 Y124.383 E23.90181
G1 X57.433 Y123.753 E23.94471
G1 X56.818 Y123.068 E23.98757
G1 X56.265 Y122.332 E24.03044
G1 X55.778 Y121.551 E24.0733
G1 X55.361 Y120.73 E24.11617
G1 X55.016 Y119.876 E24.15906
G1 X54.747 Y118.996 E24.20191
G1 X54.555 Y118.095 E24.24481
G1 X54.442 Y117.182 E24.28764
G1 X54.413 Y116.627 E24.31352
G1 X54.404 Y116.295 E24.32899
G1 X54.4 Y116.008 E24.34235
G1 X54.401 Y104.181 E24.89307
G1 X54.41 Y103.516 E24.92404
G1 X54.462 Y102.596 E24.96694
G1 X54.594 Y101.685 E25.00981
G1 X54.805 Y100.789 E25.05267
G1 X55.092 Y99.914 E25.09555
G1 X55.455 Y99.068 E25.13841
G1 X55.889 Y98.256 E25.18129
G1 X56.392 Y97.485 E25.22415
G1 X56.961 Y96.761 E25.26703
G1 X57.589 Y96.089 E25.30986
G1 X58.274 Y95.473 E25.35275
G1 X59.01 Y94.92 E25.39562
G1 X59.791 Y94.432 E25.4385
G0 F6000 X60.169 Y94.681
G1 F900 X60.982 Y94.288 E25.48055
G1 X61.827 Y93.968 E25.52263
G1 X62.696 Y93.725 E25.56464
G1 X63.584 Y93.559 E25.60671
G1 X64.723 Y93.463 E25.65993
G1 X65.044 Y93.454 E25.67488
G1 X65.33 Y93.45 E25.6882
G1 X154.293 Y93.45 E29.83069
G1 X155.137 Y93.461 E29.87
G1 X156.039 Y93.514 E29.91207
G1 X156.932 Y93.646 E29.9541
G1 X157.81 Y93.857 E29.99615
G1 X158.666 Y94.145 E30.03821
G1 X159.493 Y94.507 E30.08024
G1 X160.285 Y94.942 E30.12232
G1 X161.036 Y95.444 E30.16438
G1 X161.739 Y96.011 E30.20643
G1 X162.389 Y96.638 E30.24849
G1 X162.981 Y97.32 E30.29054
G1 X163.511 Y98.051 E30.33258
G1 X163.973 Y98.827 E30.37464
G1 X164.366 Y99.64 E30.41668
G1 X164.684 Y100.485 E30.45872
G1 X164.927 Y101.355 E30.50079
G1 X165.092 Y102.243 E30.54284
G1 X165.187 Y103.373 E30.59565
G1 X165.196 Y103.693 E30.61055
G1 X165.2 Y103.98 E30.62392
G1 X165.199 Y115.74 E31.17151
G1 X165.19 Y116.459 E31.20499
G1 X165.139 Y117.36 E31.24702
G1 X165.008 Y118.254 E31.28909
G1 X164.799 Y119.132 E31.33112
G1 X164.513 Y119.989 E31.37318
G1 X164.152 Y120.817 E31.41524
G1 X163.719 Y121.61 E31.45732
G1 X163.218 Y122.361 E31.49935
G1 X162.652 Y123.065 E31.54141
G1 X162.027 Y123.716 E31.58344
G1 X161.346 Y124.31 E31.62551
G1 X160.615 Y124.84 E31.66756
G1 X159.84 Y125.304 E31.70962
G1 X159.028 Y125.698 E31.75165
G1 X158.183 Y126.019 E31.79374
G1 X157.314 Y126.263 E31.83576
G1 X156.426 Y126.43 E31.87784
G1 X155.235 Y126.528 E31.93348
G1 X154.441 Y126.547 E31.97047
G1 X154.197 Y126.55 E31.98183
G1 X65.561 Y126.549 E36.10909
G1 X64.863 Y126.539 E36.1416
G1 X63.961 Y126.486 E36.18367
G1 X63.068 Y126.354 E36.2257
G1 X62.19 Y126.143 E36.26775
G1 X61.334 Y125.855 E36.30981
G1 X60.507 Y125.493 E36.35184
G1 X59.715 Y125.058 E36.39392
G1 X58.964 Y124.556 E36.43598
G1 X58.261 Y123.989 E36.47804
G1 X57.611 Y123.362 E36.52009
G1 X57.019 Y122.68 E36.56214
G1 X56.489 Y121.949 E36.60418
G1 X56.027 Y121.173 E36.64624
G1 X55.634 Y120.36 E36.68828
G1 X55.316 Y119.515 E36.73033
G1 X55.073 Y118.645 E36.77239
G1 X54.908 Y117.757 E36.81444
G1 X54.813 Y116.616 E36.86776
G1 X54.804 Y116.284 E36.88322
G1 X54.8 Y116.008 E36.89608
G1 X54.801 Y104.186 E37.44656
G1 X54.81 Y103.521 E37.47753
G1 X54.862 Y102.619 E37.5196
G1 X54.994 Y101.726 E37.56163
G1 X55.204 Y100.848 E37.60367
G1 X55.491 Y99.991 E37.64575
G1 X55.853 Y99.164 E37.68779
G1 X56.286 Y98.372 E37.72982
G1 X56.788 Y97.621 E37.77188
G1 X57.355 Y96.917 E37.81397
G1 X57.981 Y96.267 E37.85599
G1 X58.662 Y95.674 E37.89804
G1 X59.394 Y95.144 E37.94012
G1 X60.169 Y94.681 E37.98216
G1 F2400 E27.98216
;MESH:line_stamp.stl
G0 F6000 X65.414 Y102.985
G0 X65.414 Y104.064
G0 X66 Y115.35
;TYPE:WALL-INNER
G1 F2400 E37.98216
G1 F900 X66 Y104.65 E38.48039
G1 X154 Y104.65 E42.57804
G1 X154 Y115.349 E43.07623
G1 X66 Y115.35 E47.17388
G0 F6000 X65.6 Y115.75
G1 F900 X65.6 Y104.25 E47.70937
G1 X154.4 Y104.25 E51.84427
G1 X154.4 Y115.749 E52.37971
G1 X65.6 Y115.75 E56.51461
G0 F6000 X65.2 Y116.15
;TYPE:WALL-OUTER
G1 F900 X65.2 Y103.85 E57.08735
G1 X154.8 Y103.85 E61.2595
G1 X154.8 Y116.149 E61.8322
G1 X65.2 Y116.15 E66.00435
G0 F6000 X65.47 Y115.88
G0 X66.11 Y114.96
G0 X66.39 Y114.96
;TYPE:SKIN
G1 F900 X66.39 Y105.04 E66.46626
G1 X153.61 Y105.04 E70.52759
G1 X153.61 Y114.959 E70.98946
G1 X66.39 Y114.96 E75.05079
G0 F6000 X66.715 Y114.798
G1 F900 X66.55 Y114.633 E75.06166
G0 F6000 X66.55 Y114.067
G1 F900 X67.281 Y114.798 E75.10979
G0 F6000 X67.846 Y114.798
G1 F900 X66.55 Y113.501 E75.19517
G0 F6000 X66.55 Y112.936
G1 F900 X68.412 Y114.798 E75.31779
G0 F6000 X68.978 Y114.798
G1 F900 X66.55 Y112.37 E75.47767
G0 F6000 X66.55 Y111.804
G1 F900 X69.543 Y114.798 E75.6748
G0 F6000 X70.109 Y114.798
G1 F900 X66.55 Y111.239 E75.90917
G0 F6000 X66.55 Y110.673
G1 F900 X70.675 Y114.798 E76.18081
G0 F6000 X71.241 Y114.798
G1 F900 X66.55 Y110.107 E76.48972
G0 F6000 X66.55 Y109.542
G1 F900 X71.806 Y114.798 E76.83583
G0 F6000 X72.372 Y114.798
G1 F900 X66.55 Y108.976 E77.21922
G0 F6000 X66.55 Y108.41
G1 F900 X72.938 Y114.798 E77.63988
G0 F6000 X73.503 Y114.798
G1 F900 X66.55 Y107.845 E78.09775
G0 F6000 X66.55 Y107.279
G1 F900 X74.069 Y114.798 E78.59289
G0 F6000 X74.635 Y114.798
G1 F900 X66.55 Y106.713 E79.1253
G0 F6000 X66.55 Y106.148
G1 F900 X75.2 Y114.798 E79.69492
G0 F6000 X75.766 Y114.798
G1 F900 X66.55 Y105.582 E80.30181
G0 F6000 X66.733 Y105.199
G1 F900 X76.332 Y114.798 E80.93392
G0 F6000 X76.897 Y114.798
G1 F900 X67.298 Y105.199 E81.56603
G0 F6000 X67.864 Y105.199
G1 F900 X77.463 Y114.798 E82.19814
G0 F6000 X78.029 Y114.798
G1 F900 X68.43 Y105.199 E82.83025
G0 F6000 X68.995 Y105.199
G1 F900 X78.594 Y114.798 E83.46236
G0 F6000 X79.16 Y114.798
G1 F900 X69.561 Y105.199 E84.09447
G0 F6000 X70.127 Y105.199
G1 F900 X79.726 Y114.798 E84.72658
G0 F6000 X80.291 Y114.798
G1 F900 X70.693 Y105.199 E85.35866
G0 F6000 X71.258 Y105.199
G1 F900 X80.857 Y114.798 E85.99077
G0 F6000 X81.423 Y114.798
G1 F900 X71.824 Y105.199 E86.62288
G0 F6000 X72.39 Y105.199
G1 F900 X81.989 Y114.798 E87.25499
G0 F6000 X82.554 Y114.798
G1 F900 X72.955 Y105.199 E87.8871
G0 F6000 X73.521 Y105.199
G1 F900 X83.12 Y114.798 E88.51921
G0 F6000 X83.686 Y114.798
G1 F900 X74.087 Y105.199 E89.15132
G0 F6000 X74.652 Y105.199
G1 F900 X84.251 Y114.798 E89.78343
G0 F6000 X84.817 Y114.798
G1 F900 X75.218 Y105.199 E90.41554
G0 F6000 X75.784 Y105.199
G1 F900 X85.383 Y114.798 E91.04765
G0 F6000 X85.948 Y114.798
G1 F900 X76.349 Y105.199 E91.67976
G0 F6000 X76.915 Y105.199
G1 F900 X86.514 Y114.798 E92.31187
G0 F6000 X87.08 Y114.798
G1 F900 X77.481 Y105.199 E92.94398
G0 F6000 X78.046 Y105.199
G1 F900 X87.645 Y114.798 E93.57609
G0 F6000 X88.211 Y114.798
G1 F900 X78.612 Y105.199 E94.2082
G0 F6000 X79.178 Y105.199
G1 F900 X88.777 Y114.798 E94.84032
G0 F6000 X89.342 Y114.798
G1 F900 X79.743 Y105.199 E95.47243
G0 F6000 X80.309 Y105.199
G1 F900 X89.908 Y114.798 E96.10454
G0 F6000 X90.474 Y114.798
G1 F900 X80.875 Y105.199 E96.73665
G0 F6000 X81.441 Y105.199
G1 F900 X91.039 Y114.798 E97.36872
G0 F6000 X91.605 Y114.798
G1 F900 X82.006 Y105.199 E98.00083
G0 F6000 X82.572 Y105.199
G1 F900 X92.171 Y114.798 E98.63295
G0 F6000 X92.737 Y114.798
G1 F900 X83.138 Y105.199 E99.26506
G0 F6000 X83.703 Y105.199
G1 F900 X93.302 Y114.798 E99.89717
G0 F6000 X93.868 Y114.798
G1 F900 X84.269 Y105.199 E100.52928
G0 F6000 X84.835 Y105.199
G1 F900 X94.434 Y114.798 E101.16139
G0 F6000 X94.999 Y114.798
G1 F900 X85.4 Y105.199 E101.7935
G0 F6000 X85.966 Y105.199
G1 F900 X95.565 Y114.798 E102.42561
G0 F6000 X96.131 Y114.798
G1 F900 X86.532 Y105.199 E103.05772
G0 F6000 X87.097 Y105.199
G1 F900 X96.696 Y114.798 E103.68983
G0 F6000 X97.262 Y114.798
G1 F900 X87.663 Y105.199 E104.32194
G0 F6000 X88.229 Y105.199
G1 F900 X97.828 Y114.798 E104.95405
G0 F6000 X98.393 Y114.798
G1 F900 X88.794 Y105.199 E105.58616
G0 F6000 X89.36 Y105.199
G1 F900 X98.959 Y114.798 E106.21827
G0 F6000 X99.525 Y114.798
G1 F900 X89.926 Y105.199 E106.85038
G0 F6000 X90.491 Y105.199
G1 F900 X100.09 Y114.798 E107.48249
G0 F6000 X100.656 Y114.798
G1 F900 X91.057 Y105.199 E108.1146
G0 F6000 X91.623 Y105.199
G1 F900 X101.222 Y114.798 E108.74671
G0 F6000 X101.788 Y114.798
G1 F900 X92.189 Y105.199 E109.37882
G0 F6000 X92.754 Y105.199
G1 F900 X102.353 Y114.798 E110.01094
G0 F6000 X102.919 Y114.798
G1 F900 X93.32 Y105.199 E110.64305
G0 F6000 X93.886 Y105.199
G1 F900 X103.485 Y114.798 E111.27516
G0 F6000 X104.05 Y114.798
G1 F900 X94.451 Y105.199 E111.90727
G0 F6000 X95.017 Y105.199
G1 F900 X104.616 Y114.798 E112.53938
G0 F6000 X105.182 Y114.798
G1 F900 X95.583 Y105.199 E113.17149
G0 F6000 X96.148 Y105.199
G1 F900 X105.747 Y114.798 E113.8036
G0 F6000 X106.313 Y114.798
G1 F900 X96.714 Y105.199 E114.43571
G0 F6000 X97.28 Y105.199
G1 F900 X106.879 Y114.798 E115.06782
G0 F6000 X107.444 Y114.798
G1 F900 X97.845 Y105.199 E115.69993
G0 F6000 X98.411 Y105.199
G1 F900 X108.01 Y114.798 E116.33204
G0 F6000 X108.576 Y114.798
G1 F900 X98.977 Y105.199 E116.96415
G0 F6000 X99.542 Y105.199
G1 F900 X109.141 Y114.798 E117.59626
G0 F6000 X109.707 Y114.798
G1 F900 X100.108 Y105.199 E118.22837
G0 F6000 X100.674 Y105.199
G1 F900 X110.273 Y114.798 E118.86048
G0 F6000 X110.838 Y114.798
G1 F900 X101.24 Y105.199 E119.49256
G0 F6000 X101.805 Y105.199
G1 F900 X111.404 Y114.798 E120.12467
G0 F6000 X111.97 Y114.798
G1 F900 X102.371 Y105.199 E120.75678
G0 F6000 X102.937 Y105.199
G1 F900 X112.536 Y114.798 E121.38889
G0 F6000 X113.101 Y114.798
G1 F900 X103.502 Y105.199 E122.021
G0 F6000 X104.068 Y105.199
G1 F900 X113.667 Y114.798 E122.65311
G0 F6000 X114.233 Y114.798
G1 F900 X104.634 Y105.199 E123.28522
G0 F6000 X105.199 Y105.199
G1 F900 X114.798 Y114.798 E123.91733
G0 F6000 X115.364 Y114.798
G1 F900 X105.765 Y105.199 E124.54944
G0 F6000 X106.331 Y105.199
G1 F900 X115.93 Y114.798 E125.18156
G0 F6000 X116.495 Y114.798
G1 F900 X106.896 Y105.199 E125.81367
G0 F6000 X107.462 Y105.199
G1 F900 X117.061 Y114.798 E126.44578
G0 F6000 X117.627 Y114.798
G1 F900 X108.028 Y105.199 E127.07789
G0 F6000 X108.593 Y105.199
G1 F900 X118.192 Y114.798 E127.71
G0 F6000 X118.758 Y114.798
G1 F900 X109.159 Y105.199 E128.34211
G0 F6000 X109.725 Y105.199
G1 F900 X119.324 Y114.798 E128.97422
G0 F6000 X119.889 Y114.798
G1 F900 X110.291 Y105.2 E129.60626
G0 F6000 X110.857 Y105.2
G1 F900 X120.455 Y114.798 E130.23831
G0 F6000 X121.021 Y114.798
G1 F900 X111.423 Y105.2 E130.87035
G0 F6000 X111.988 Y105.2
G1 F900 X121.587 Y114.798 E131.50243
G0 F6000 X122.152 Y114.798
G1 F900 X112.554 Y105.2 E132.13447
G0 F6000 X113.12 Y105.2
