;FLAVOR:Marlin
;TIME:2983
;Filament used: 3.51558m
;Layer height: 0.28
;MINX:54
;MINY:96
;MINZ:0.28
;MAXX:166
;MAXY:123.999
;MAXZ:26.04
;Generated with Cura_SteamEngine 4.12.1
M140 S80
M105
M190 S80
M104 S235
M105
M109 S235
M82 ;absolute extrusion mode
; Ender 3 Custom Start G-code
G92 E0 ; Reset Extruder
G28 ; Home all axes
G1 Z2.0 F3000 ; Move Z Axis up little to prevent scratching of Heat Bed
G1 X0.1 Y20 Z0.3 F5000.0 ; Move to start position
G1 X0.1 Y200.0 Z0.3 F1500.0 E15 ; Draw the first line
G1 X0.4 Y200.0 Z0.3 F5000.0 ; Move to side a little
G1 X0.4 Y20 Z0.3 F1500.0 E30 ; Draw the second line
G92 E0 ; Reset Extruder
G1 Z2.0 F3000 ; Move Z Axis up little to prevent scratching of Heat Bed
G1 X5 Y20 Z0.3 F5000.0 ; Move over to prevent blob squish
G92 E0
G92 E0
G1 F2400 E-10
;LAYER_COUNT:93
;LAYER:0
M107
G0 F6000 X59.409 Y97.541 Z0.28
;TYPE:SKIRT
G1 F2400 E0
G1 F900 X60.236 Y97.099 E0.04366
G1 X61.097 Y96.728 E0.08732
G1 X61.987 Y96.432 E0.13099
G1 X62.899 Y96.213 E0.17467
G1 X63.827 Y96.073 E0.21837
G1 X64.701 Y96.013 E0.25916
G1 X65.022 Y96.004 E0.27411
G1 X65.33 Y96 E0.28846
G1 X154.451 Y96.002 E4.4383
G1 X155.149 Y96.012 E4.47081
G1 X156.085 Y96.066 E4.51446
G1 X157.013 Y96.198 E4.55811
G1 X157.927 Y96.41 E4.6018
G1 X158.819 Y96.699 E4.64546
G1 X159.684 Y97.062 E4.68914
G1 X160.514 Y97.498 E4.7328
G1 X161.305 Y98.003 E4.7765
G1 X162.049 Y98.574 E4.82017
G1 X162.742 Y99.206 E4.86384
G1 X163.379 Y99.894 E4.9075
G1 X163.954 Y100.635 E4.95117
G1 X164.465 Y101.421 E4.99483
G1 X164.907 Y102.249 E5.03853
G1 X165.276 Y103.111 E5.08219
G1 X165.571 Y104.001 E5.12585
G1 X165.789 Y104.913 E5.16952
G1 X165.929 Y105.841 E5.21322
G1 X165.987 Y106.702 E5.2534
G1 X165.996 Y107.022 E5.26831
G1 X166 Y107.331 E5.2827
G1 X165.999 Y112.399 E5.51868
G1 X165.99 Y113.126 E5.55254
G1 X165.939 Y114.063 E5.59623
G1 X165.807 Y114.991 E5.63988
G1 X165.598 Y115.905 E5.68354
G1 X165.311 Y116.798 E5.72721
G1 X164.949 Y117.664 E5.77092
G1 X164.515 Y118.495 E5.81457
G1 X164.011 Y119.286 E5.85825
G1 X163.442 Y120.031 E5.9019
G1 X162.811 Y120.726 E5.94561
G1 X162.124 Y121.364 E5.98927
G1 X161.385 Y121.941 E6.03292
G1 X160.599 Y122.453 E6.0766
G1 X159.773 Y122.896 E6.12025
G1 X158.911 Y123.268 E6.16396
G1 X158.022 Y123.564 E6.20759
G1 X157.11 Y123.784 E6.25128
G1 X156.183 Y123.925 E6.29494
G1 X155.299 Y123.986 E6.3362
G1 X154.978 Y123.995 E6.35115
G1 X154.67 Y123.999 E6.3655
G1 X65.565 Y123.999 E10.5146
G1 X64.867 Y123.99 E10.5471
G1 X63.931 Y123.938 E10.59075
G1 X63.002 Y123.806 E10.63445
G1 X62.088 Y123.596 E10.67812
G1 X61.195 Y123.309 E10.72179
G1 X60.33 Y122.946 E10.76547
G1 X59.499 Y122.512 E10.80913
G1 X58.708 Y122.008 E10.8528
G1 X57.963 Y121.438 E10.89648
G1 X57.269 Y120.807 E10.94016
G1 X56.632 Y120.12 E10.98378
G1 X56.055 Y119.38 E11.02747
G1 X55.543 Y118.594 E11.07115
G1 X55.1 Y117.767 E11.11484
G1 X54.729 Y116.906 E11.1585
G1 X54.433 Y116.016 E11.20217
G1 X54.214 Y115.104 E11.24584
G1 X54.073 Y114.177 E11.2895
G1 X54.013 Y113.295 E11.33067
G1 X54.004 Y112.97 E11.34581
G1 X54 Y112.666 E11.35996
G1 X54.001 Y107.545 E11.59842
G1 X54.01 Y106.864 E11.63013
G1 X54.062 Y105.927 E11.67383
G1 X54.194 Y104.999 E11.71748
G1 X54.405 Y104.085 E11.76116
G1 X54.692 Y103.192 E11.80483
G1 X55.055 Y102.327 E11.84851
G1 X55.49 Y101.496 E11.89219
G1 X55.994 Y100.705 E11.93586
G1 X56.564 Y99.96 E11.97954
G1 X57.195 Y99.267 E12.02318
G1 X57.883 Y98.629 E12.06687
G1 X58.623 Y98.053 E12.11054
G1 X59.409 Y97.541 E12.15422
G0 F6000 X59.788 Y97.784
G1 F900 X60.608 Y97.366 E12.19708
G1 X61.462 Y97.02 E12.23998
G1 X62.342 Y96.75 E12.28284
G1 X63.242 Y96.557 E12.32571
G1 X64.156 Y96.443 E12.36859
G1 X64.712 Y96.413 E12.39452
G1 X65.033 Y96.404 E12.40948
G1 X65.33 Y96.4 E12.42331
G1 X154.445 Y96.402 E16.57287
G1 X155.143 Y96.412 E16.60538
G1 X156.062 Y96.465 E16.64824
G1 X156.973 Y96.598 E16.69111
G1 X157.869 Y96.809 E16.73397
G1 X158.743 Y97.097 E16.77682
G1 X159.59 Y97.46 E16.81973
G1 X160.401 Y97.895 E16.86259
G1 X161.171 Y98.399 E16.90544
G1 X161.895 Y98.968 E16.94832
G1 X162.567 Y99.598 E16.99121
G1 X163.182 Y100.283 E17.03407
G1 X163.735 Y101.019 E17.07694
G1 X164.222 Y101.8 E17.1198
G1 X164.639 Y102.621 E17.16268
G1 X164.984 Y103.475 E17.20556
G1 X165.253 Y104.355 E17.24841
G1 X165.445 Y105.256 E17.29131
G1 X165.558 Y106.169 E17.33415
G1 X165.587 Y106.713 E17.35951
G1 X165.596 Y107.033 E17.37442
G1 X165.6 Y107.331 E17.3883
G1 X165.599 Y112.394 E17.62405
G1 X165.59 Y113.121 E17.65791
G1 X165.539 Y114.04 E17.70076
G1 X165.408 Y114.952 E17.74367
G1 X165.198 Y115.848 E17.78652
G1 X164.912 Y116.723 E17.82938
G1 X164.551 Y117.57 E17.87226
G1 X164.117 Y118.382 E17.91513
G1 X163.615 Y119.154 E17.95801
G1 X163.047 Y119.879 E18.00089
G1 X162.419 Y120.552 E18.04376
G1 X161.735 Y121.168 E18.08662
G1 X161 Y121.722 E18.12948
G1 X160.22 Y122.211 E18.17234
G1 X159.4 Y122.63 E18.21522
G1 X158.547 Y122.976 E18.25808
G1 X157.667 Y123.247 E18.30096
G1 X156.767 Y123.44 E18.34382
G1 X155.853 Y123.555 E18.38672
G1 X155.288 Y123.586 E18.41306
G1 X154.967 Y123.595 E18.42802
G1 X154.67 Y123.599 E18.44185
G1 X65.57 Y123.599 E22.59072
G1 X64.872 Y123.59 E22.62322
G1 X63.953 Y123.538 E22.66608
G1 X63.042 Y123.407 E22.70894
G1 X62.146 Y123.197 E22.75179
G1 X61.271 Y122.91 E22.79467
G1 X60.424 Y122.548 E22.83756
G1 X59.612 Y122.114 E22.88043
G1 X58.841 Y121.612 E22.92327
G1 X58.116 Y121.044 E22.96616
G1 X57.443 Y120.415 E23.00905
G1 X56.828 Y119.731 E23.05188
G1 X56.274 Y118.996 E23.09474
G1 X55.786 Y118.215 E23.13762
G1 X55.367 Y117.395 E23.1805
G1 X55.021 Y116.542 E23.22337
G1 X54.751 Y115.662 E23.26623
G1 X54.558 Y114.761 E23.30913
G1 X54.444 Y113.848 E23.35198
G1 X54.413 Y113.284 E23.37828
G1 X54.404 Y112.959 E23.39342
G1 X54.4 Y112.666 E23.40706
G1 X54.401 Y107.55 E23.64528
G1 X54.41 Y106.869 E23.677
G1 X54.462 Y105.95 E23.71986
G1 X54.594 Y105.039 E23.76272
G1 X54.804 Y104.142 E23.80562
G1 X55.091 Y103.268 E23.84845
G1 X55.453 Y102.421 E23.89134
G1 X55.887 Y101.609 E23.93422
G1 X56.39 Y100.838 E23.97708
G1 X56.958 Y100.114 E24.01993
G1 X57.587 Y99.441 E24.06283
G1 X58.272 Y98.825 E24.10572
G1 X59.007 Y98.272 E24.14855
G1 X59.788 Y97.784 E24.19143
G0 F6000 X60.166 Y98.032
G1 F900 X60.979 Y97.639 E24.23348
G1 X61.823 Y97.319 E24.27551
G1 X62.693 Y97.075 E24.31759
G1 X63.581 Y96.909 E24.35965
G1 X64.723 Y96.813 E24.41301
G1 X65.044 Y96.804 E24.42797
G1 X65.33 Y96.8 E24.44129
G1 X154.439 Y96.802 E28.59057
G1 X155.137 Y96.812 E28.62308
G1 X156.039 Y96.865 E28.66515
G1 X156.932 Y96.997 E28.70719
G1 X157.81 Y97.208 E28.74923
G1 X158.666 Y97.496 E28.79129
G1 X159.493 Y97.858 E28.83332
G1 X160.285 Y98.293 E28.8754
G1 X161.036 Y98.795 E28.91746
G1 X161.739 Y99.362 E28.95952
G1 X162.389 Y99.989 E29.00157
G1 X162.981 Y100.671 E29.04362
G1 X163.511 Y101.402 E29.08567
G1 X163.973 Y102.178 E29.12772
G1 X164.366 Y102.991 E29.16977
G1 X164.684 Y103.836 E29.21181
G1 X164.927 Y104.706 E29.25387
G1 X165.092 Y105.594 E29.29593
G1 X165.187 Y106.724 E29.34873
G1 X165.196 Y107.044 E29.36364
G1 X165.2 Y107.331 E29.377
G1 X165.199 Y112.389 E29.61252
G1 X165.19 Y113.116 E29.64638
G1 X165.139 Y114.018 E29.68845
G1 X165.008 Y114.912 E29.73052
G1 X164.799 Y115.79 E29.77254
G1 X164.513 Y116.647 E29.81461
G1 X164.152 Y117.475 E29.85667
G1 X163.72 Y118.267 E29.89868
G1 X163.219 Y119.019 E29.94076
G1 X162.653 Y119.723 E29.98282
G1 X162.028 Y120.374 E30.02484
G1 X161.347 Y120.968 E30.06692
G1 X160.616 Y121.499 E30.10899
G1 X159.842 Y121.963 E30.15101
G1 X159.029 Y122.357 E30.19308
G1 X158.185 Y122.677 E30.23511
G1 X157.315 Y122.922 E30.2772
G1 X156.428 Y123.088 E30.31922
G1 X155.277 Y123.186 E30.373
G1 X154.956 Y123.195 E30.38796
G1 X154.67 Y123.199 E30.40128
G1 X65.575 Y123.199 E34.54991
G1 X64.877 Y123.19 E34.58242
G1 X63.976 Y123.139 E34.62444
G1 X63.082 Y123.007 E34.66652
G1 X62.204 Y122.798 E34.70854
G1 X61.347 Y122.511 E34.75063
G1 X60.52 Y122.15 E34.79265
G1 X59.727 Y121.717 E34.83472
G1 X58.976 Y121.216 E34.87675
G1 X58.272 Y120.65 E34.91882
G1 X57.621 Y120.024 E34.96087
G1 X57.028 Y119.343 E35.00292
G1 X56.498 Y118.612 E35.04496
G1 X56.034 Y117.837 E35.08702
G1 X55.64 Y117.024 E35.12909
G1 X55.32 Y116.18 E35.17112
G1 X55.076 Y115.31 E35.21319
G1 X54.91 Y114.422 E35.25526
G1 X54.813 Y113.273 E35.30895
G1 X54.804 Y112.948 E35.32409
G1 X54.8 Y112.666 E35.33722
G1 X54.801 Y107.555 E35.57521
G1 X54.81 Y106.874 E35.60693
G1 X54.862 Y105.973 E35.64895
G1 X54.993 Y105.079 E35.69102
G1 X55.203 Y104.201 E35.73306
G1 X55.49 Y103.344 E35.77514
G1 X55.851 Y102.517 E35.81716
G1 X56.285 Y101.724 E35.85925
G1 X56.786 Y100.973 E35.90129
G1 X57.352 Y100.27 E35.94332
G1 X57.979 Y99.619 E35.9854
G1 X58.66 Y99.026 E36.02745
G1 X59.391 Y98.496 E36.0695
G1 X60.166 Y98.032 E36.11156
G1 F2400 E26.11156
;MESH:line_stamp_narrow.stl
G0 F6000 X65.414 Y106.335
G0 X65.414 Y107.414
G0 X66 Y112
;TYPE:WALL-INNER
G1 F2400 E36.11156
G1 F900 X66 Y108 E36.29781
G1 X154 Y108.001 E40.39546
G1 X154 Y111.999 E40.58162
G1 X66 Y112 E44.67927
G0 F6000 X65.6 Y112.4
G1 F900 X65.6 Y107.6 E44.90278
G1 X154.4 Y107.601 E49.03768
G1 X154.4 Y112.399 E49.2611
G1 X65.6 Y112.4 E53.396
G0 F6000 X65.2 Y112.8
;TYPE:WALL-OUTER
G1 F900 X65.2 Y107.2 E53.65676
G1 X154.8 Y107.201 E57.82891
G1 X154.8 Y112.799 E58.08957
G1 X65.2 Y112.8 E62.26172
G0 F6000 X65.47 Y112.53
G0 X66.11 Y111.61
G0 X66.39 Y111.61
;TYPE:SKIN
G1 F900 X66.39 Y108.39 E62.41166
G1 X153.61 Y108.391 E66.47299
G1 X153.61 Y111.609 E66.62283
G1 X66.39 Y111.61 E70.68416
G0 F6000 X66.76 Y111.449
G1 F900 X66.55 Y111.239 E70.69799
G0 F6000 X66.55 Y110.673
G1 F900 X67.325 Y111.449 E70.74906
G0 F6000 X67.891 Y111.449
G1 F900 X66.55 Y110.107 E70.8374
G0 F6000 X66.55 Y109.542
G1 F900 X68.457 Y111.449 E70.96298
G0 F6000 X69.022 Y111.449
G1 F900 X66.55 Y108.976 E71.1258
G0 F6000 X66.689 Y108.55
G1 F900 X69.588 Y111.449 E71.3167
G0 F6000 X70.154 Y111.449
G1 F900 X67.255 Y108.55 E71.50761
G0 F6000 X67.82 Y108.55
G1 F900 X70.719 Y111.449 E71.69851
G0 F6000 X71.285 Y111.449
G1 F900 X68.386 Y108.55 E71.88941
G0 F6000 X68.952 Y108.55
G1 F900 X71.851 Y111.449 E72.08032
G0 F6000 X72.416 Y111.449
G1 F900 X69.517 Y108.55 E72.27122
G0 F6000 X70.083 Y108.55
G1 F900 X72.982 Y111.449 E72.46213
G0 F6000 X73.548 Y111.449
G1 F900 X70.649 Y108.55 E72.65303
G0 F6000 X71.214 Y108.55
G1 F900 X74.113 Y111.449 E72.84393
G0 F6000 X74.679 Y111.449
G1 F900 X71.78 Y108.55 E73.03484
G0 F6000 X72.346 Y108.55
G1 F900 X75.245 Y111.449 E73.22574
G0 F6000 X75.811 Y111.449
G1 F900 X72.911 Y108.55 E73.41668
G0 F6000 X73.477 Y108.55
G1 F900 X76.376 Y111.449 E73.60758
G0 F6000 X76.942 Y111.449
G1 F900 X74.043 Y108.55 E73.79849
G0 F6000 X74.608 Y108.55
G1 F900 X77.508 Y111.449 E73.98942
G0 F6000 X78.073 Y111.449
G1 F900 X75.174 Y108.55 E74.18033
G0 F6000 X75.74 Y108.55
G1 F900 X78.639 Y111.449 E74.37123
G0 F6000 X79.205 Y111.449
G1 F900 X76.306 Y108.55 E74.56214
G0 F6000 X76.871 Y108.55
G1 F900 X79.77 Y111.449 E74.75304
G0 F6000 X80.336 Y111.449
G1 F900 X77.437 Y108.55 E74.94394
G0 F6000 X78.003 Y108.55
G1 F900 X80.902 Y111.449 E75.13485
G0 F6000 X81.467 Y111.449
G1 F900 X78.568 Y108.55 E75.32575
G0 F6000 X79.134 Y108.55
G1 F900 X82.033 Y111.449 E75.51666
G0 F6000 X82.599 Y111.449
G1 F900 X79.7 Y108.55 E75.70756
G0 F6000 X80.265 Y108.55
G1 F900 X83.164 Y111.449 E75.89847
G0 F6000 X83.73 Y111.449
G1 F900 X80.831 Y108.55 E76.08937
G0 F6000 X81.397 Y108.55
G1 F900 X84.296 Y111.449 E76.28027
G0 F6000 X84.862 Y111.449
G1 F900 X81.962 Y108.55 E76.47121
G0 F6000 X82.528 Y108.55
G1 F900 X85.427 Y111.449 E76.66211
G0 F6000 X85.993 Y111.449
G1 F900 X83.094 Y108.55 E76.85302
G0 F6000 X83.659 Y108.55
G1 F900 X86.559 Y111.449 E77.04396
G0 F6000 X87.124 Y111.449
G1 F900 X84.225 Y108.55 E77.23486
G0 F6000 X84.791 Y108.55
G1 F900 X87.69 Y111.449 E77.42576
G0 F6000 X88.256 Y111.449
G1 F900 X85.356 Y108.55 E77.6167
G0 F6000 X85.922 Y108.55
G1 F900 X88.821 Y111.449 E77.80761
G0 F6000 X89.387 Y111.449
G1 F900 X86.488 Y108.55 E77.99851
G0 F6000 X87.054 Y108.55
G1 F900 X89.953 Y111.449 E78.18941
G0 F6000 X90.518 Y111.449
G1 F900 X87.619 Y108.55 E78.38032
G0 F6000 X88.185 Y108.55
G1 F900 X91.084 Y111.449 E78.57122
G0 F6000 X91.65 Y111.449
G1 F900 X88.751 Y108.55 E78.76213
G0 F6000 X89.316 Y108.55
G1 F900 X92.215 Y111.449 E78.95303
G0 F6000 X92.781 Y111.449
G1 F900 X89.882 Y108.55 E79.14393
G0 F6000 X90.448 Y108.55
G1 F900 X93.347 Y111.449 E79.33484
G0 F6000 X93.912 Y111.449
G1 F900 X91.013 Y108.55 E79.52574
G0 F6000 X91.579 Y108.55
G1 F900 X94.478 Y111.449 E79.71665
G0 F6000 X95.044 Y111.449
G1 F900 X92.145 Y108.55 E79.90755
G0 F6000 X92.71 Y108.55
G1 F900 X95.61 Y111.449 E80.09849
G0 F6000 X96.175 Y111.449
G1 F900 X93.276 Y108.55 E80.28939
G0 F6000 X93.842 Y108.55
G1 F900 X96.741 Y111.449 E80.4803
G0 F6000 X97.307 Y111.449
G1 F900 X94.407 Y108.55 E80.67123
G0 F6000 X94.973 Y108.55
G1 F900 X97.872 Y111.449 E80.86214
G0 F6000 X98.438 Y111.449
G1 F900 X95.539 Y108.55 E81.05304
G0 F6000 X96.105 Y108.55
G1 F900 X99.004 Y111.449 E81.24394
G0 F6000 X99.569 Y111.449
G1 F900 X96.67 Y108.55 E81.43485
G0 F6000 X97.236 Y108.55
G1 F900 X100.135 Y111.449 E81.62575
G0 F6000 X100.701 Y111.449
G1 F900 X97.802 Y108.55 E81.81666
G0 F6000 X98.367 Y108.55
G1 F900 X101.266 Y111.449 E82.00756
G0 F6000 X101.832 Y111.449
G1 F900 X98.933 Y108.55 E82.19847
G0 F6000 X99.499 Y108.55
G1 F900 X102.398 Y111.449 E82.38937
G0 F6000 X102.963 Y111.449
G1 F900 X100.064 Y108.55 E82.58027
G0 F6000 X100.63 Y108.55
G1 F900 X103.529 Y111.449 E82.77118
G0 F6000 X104.095 Y111.449
G1 F900 X101.196 Y108.55 E82.96208
G0 F6000 X101.761 Y108.55
G1 F900 X104.66 Y111.449 E83.15299
G0 F6000 X105.226 Y111.449
G1 F900 X102.327 Y108.55 E83.34389
G0 F6000 X102.893 Y108.55
G1 F900 X105.792 Y111.449 E83.53479
G0 F6000 X106.358 Y111.449
G1 F900 X103.458 Y108.55 E83.72573
G0 F6000 X104.024 Y108.55
G1 F900 X106.923 Y111.449 E83.91664
G0 F6000 X107.489 Y111.449
G1 F900 X104.59 Y108.55 E84.10754
G0 F6000 X105.155 Y108.55
G1 F900 X108.055 Y111.449 E84.29848
G0 F6000 X108.62 Y111.449
G1 F900 X105.721 Y108.55 E84.48938
G0 F6000 X106.287 Y108.55
G1 F900 X109.186 Y111.449 E84.68028
G0 F6000 X109.752 Y111.449
G1 F900 X106.853 Y108.55 E84.87119
G0 F6000 X107.418 Y108.55
G1 F900 X110.317 Y111.448 E85.06206
G0 F6000 X110.882 Y111.448
G1 F900 X107.984 Y108.55 E85.2529
G0 F6000 X108.55 Y108.55
G1 F900 X111.448 Y111.448 E85.44374
G0 F6000 X112.014 Y111.448
G1 F900 X109.115 Y108.55 E85.63461
G0 F6000 X109.681 Y108.55
G1 F900 X112.579 Y111.448 E85.82545
G0 F6000 X113.145 Y111.448
G1 F900 X110.247 Y108.55 E86.01628
G0 F6000 X110.813 Y108.55
G1 F900 X113.711 Y111.448 E86.20712
G0 F6000 X114.276 Y111.448
G1 F900 X111.379 Y108.55 E86.39793
G0 F6000 X111.944 Y108.55
G1 F900 X114.842 Y111.448 E86.58877
G0 F6000 X115.408 Y111.448
G1 F900 X112.51 Y108.55 E86.7796
G0 F6000 X113.076 Y108.55
G1 F900 X115.973 Y111.448 E86.97041
G0 F6000 X116.539 Y111.448
G1 F900 X113.641 Y108.55 E87.16125
G0 F6000 X114.207 Y108.55
G1 F900 X117.105 Y111.448 E87.35209
G0 F6000 X117.671 Y111.448
G1 F900 X114.773 Y108.55 E87.54292
G0 F6000 X115.339 Y108.55
G1 F900 X118.236 Y111.448 E87.73373
G0 F6000 X118.802 Y111.448
G1 F900 X115.904 Y108.55 E87.92457
G0 F6000 X116.47 Y108.55
G1 F900 X119.368 Y111.448 E88.11541
G0 F6000 X119.933 Y111.448
G1 F900 X117.036 Y108.55 E88.30621
G0 F6000 X117.601 Y108.55
G1 F900 X120.499 Y111.448 E88.49705
G0 F6000 X121.065 Y111.448
G1 F900 X118.167 Y108.55 E88.68789
G0 F6000 X118.733 Y108.55
G1 F900 X121.63 Y111.448 E88.87869
G0 F6000 X122.196 Y111.448
G1 F900 X119.298 Y108.55 E89.06953
G0 F6000 X119.864 Y108.55
G1 F900 X122.762 Y111.448 E89.26037
G0 F6000 X123.327 Y111.448
G1 F900 X120.43 Y108.55 E89.45117
