;FLAVOR:Marlin
;TIME:1388
;Filament used: 1.54848m
;Layer height: 0.28
;MINX:57.15
;MINY:62.15
;MINZ:0.28
;MAXX:162.85
;MAXY:157.85
;MAXZ:1.4
;Generated with Cura_SteamEngine 4.12.1
M140 S80
M105
M190 S80
M104 S235
M105
M109 S235
M82 ;absolute extrusion mode
; Ender 3 Custom Start G-code
G92 E0 ; Reset Extruder
G28 ; Home all axes
G1 Z2.0 F3000 ; Move Z Axis up little to prevent scratching of Heat Bed
G1 X0.1 Y20 Z0.3 F5000.0 ; Move to start position
G1 X0.1 Y200.0 Z0.3 F1500.0 E15 ; Draw the first line
G1 X0.4 Y200.0 Z0.3 F5000.0 ; Move to side a little
G1 X0.4 Y20 Z0.3 F1500.0 E30 ; Draw the second line
G92 E0 ; Reset Extruder
G1 Z2.0 F3000 ; Move Z Axis up little to prevent scratching of Heat Bed
G1 X5 Y20 Z0.3 F5000.0 ; Move over to prevent blob squish
G92 E0
G92 E0
G1 F2400 E-10
;LAYER_COUNT:5
;LAYER:0
M107
G0 F6000 X60.348 Y65.414 Z0.28
;TYPE:SKIRT
G1 F2400 E0
G1 F900 X61.036 Y64.777 E0.04366
G1 X61.776 Y64.201 E0.08732
G1 X62.562 Y63.689 E0.131
G1 X63.389 Y63.247 E0.17467
G1 X64.251 Y62.877 E0.21835
G1 X65.141 Y62.581 E0.26202
G1 X66.053 Y62.363 E0.30568
G1 X66.98 Y62.222 E0.34935
G1 X67.851 Y62.163 E0.39
G1 X68.172 Y62.154 E0.40495
G1 X68.48 Y62.15 E0.41929
G1 X79.008 Y62.15 E0.90952
G1 X79.867 Y62.161 E0.94952
G1 X80.804 Y62.214 E0.99322
G1 X81.732 Y62.347 E1.03688
G1 X82.626 Y62.553 E1.07959
G1 X83.423 Y62.772 E1.11808
G1 X85.94 Y63.427 E1.23919
G1 X88.377 Y63.987 E1.35562
G1 X90.896 Y64.492 E1.47525
G1 X93.302 Y64.903 E1.58891
G1 X95.835 Y65.263 E1.70804
G1 X98.325 Y65.546 E1.82473
G1 X100.862 Y65.761 E1.94329
G1 X103.325 Y65.901 E2.05816
G1 X105.876 Y65.972 E2.17699
G1 X108.4 Y65.972 E2.29452
G1 X110.895 Y65.9 E2.41075
G1 X113.412 Y65.758 E2.52813
G1 X115.918 Y65.544 E2.64525
G1 X118.408 Y65.261 E2.76194
G1 X120.907 Y64.905 E2.87948
G1 X123.392 Y64.479 E2.99688
G1 X125.84 Y63.988 E3.11314
G1 X128.333 Y63.413 E3.23227
G1 X130.535 Y62.844 E3.33817
G1 X131.628 Y62.547 E3.39091
G1 X132.543 Y62.34 E3.4346
G1 X133.891 Y62.18 E3.4978
G1 X133.997 Y62.174 E3.50275
G1 X134.486 Y62.157 E3.52553
G1 X135.116 Y62.15 E3.55487
G1 X151.301 Y62.151 E4.30851
G1 X151.999 Y62.161 E4.34102
G1 X152.935 Y62.215 E4.38467
G1 X153.863 Y62.347 E4.42832
G1 X154.777 Y62.559 E4.47201
G1 X155.669 Y62.848 E4.51567
G1 X156.534 Y63.211 E4.55935
G1 X157.364 Y63.647 E4.60301
G1 X158.155 Y64.152 E4.6467
G1 X158.899 Y64.723 E4.69038
G1 X159.592 Y65.355 E4.73405
G1 X160.229 Y66.043 E4.77771
G1 X160.804 Y66.784 E4.82138
G1 X161.315 Y67.57 E4.86504
G1 X161.757 Y68.398 E4.90874
G1 X162.126 Y69.26 E4.9524
G1 X162.421 Y70.15 E4.99606
G1 X162.639 Y71.062 E5.03972
G1 X162.779 Y71.99 E5.08342
G1 X162.837 Y72.848 E5.12347
G1 X162.846 Y73.165 E5.13823
G1 X162.85 Y73.477 E5.15276
G1 X162.849 Y146.25 E8.54138
G1 X162.84 Y146.977 E8.57523
G1 X162.789 Y147.914 E8.61893
G1 X162.657 Y148.842 E8.66258
G1 X162.448 Y149.756 E8.70623
G1 X162.161 Y150.649 E8.74991
G1 X161.799 Y151.515 E8.79362
G1 X161.365 Y152.346 E8.83727
G1 X160.861 Y153.137 E8.88094
G1 X160.292 Y153.882 E8.92459
G1 X159.661 Y154.577 E8.96831
G1 X158.974 Y155.215 E9.01196
G1 X158.235 Y155.792 E9.05562
G1 X157.449 Y156.304 E9.0993
G1 X156.623 Y156.747 E9.14294
G1 X155.761 Y157.119 E9.18666
G1 X154.872 Y157.415 E9.23029
G1 X153.96 Y157.635 E9.27397
G1 X153.033 Y157.776 E9.31764
G1 X152.149 Y157.837 E9.3589
G1 X151.828 Y157.846 E9.37385
G1 X151.52 Y157.85 E9.38819
G1 X68.715 Y157.849 E13.24394
G1 X68.017 Y157.84 E13.27644
G1 X67.081 Y157.788 E13.3201
G1 X66.152 Y157.656 E13.36379
G1 X65.238 Y157.446 E13.40746
G1 X64.345 Y157.159 E13.45113
G1 X63.48 Y156.796 E13.49481
G1 X62.649 Y156.362 E13.53847
G1 X61.858 Y155.858 E13.58214
G1 X61.113 Y155.288 E13.62582
G1 X60.419 Y154.657 E13.6695
G1 X59.782 Y153.97 E13.71312
G1 X59.205 Y153.23 E13.75682
G1 X58.693 Y152.444 E13.8005
G1 X58.25 Y151.617 E13.84418
G1 X57.879 Y150.756 E13.88784
G1 X57.583 Y149.866 E13.93151
G1 X57.364 Y148.954 E13.97519
G1 X57.223 Y148.027 E14.01885
G1 X57.163 Y147.138 E14.06034
G1 X57.154 Y146.805 E14.07585
G1 X57.15 Y146.508 E14.08968
G1 X57.151 Y73.675 E17.48109
G1 X57.16 Y73.01 E17.51206
G1 X57.213 Y72.074 E17.55571
G1 X57.345 Y71.145 E17.5994
G1 X57.556 Y70.231 E17.64308
G1 X57.844 Y69.339 E17.68673
G1 X58.207 Y68.474 E17.73041
G1 X58.642 Y67.643 E17.77408
G1 X59.146 Y66.853 E17.81772
G1 X59.716 Y66.108 E17.8614
G1 X60.348 Y65.414 E17.90511
G0 F6000 X60.739 Y65.589
G1 F900 X61.424 Y64.973 E17.948
G1 X62.16 Y64.42 E17.99087
G1 X62.941 Y63.932 E18.03375
G1 X63.761 Y63.514 E18.07661
G1 X64.615 Y63.169 E18.1195
G1 X65.495 Y62.899 E18.16236
G1 X66.395 Y62.707 E18.20521
G1 X67.309 Y62.593 E18.2481
G1 X67.862 Y62.563 E18.27389
G1 X68.183 Y62.554 E18.28884
G1 X68.48 Y62.55 E18.30267
G1 X79.008 Y62.55 E18.7929
G1 X79.862 Y62.561 E18.83267
G1 X80.781 Y62.614 E18.87553
G1 X81.692 Y62.747 E18.9184
G1 X82.52 Y62.939 E18.95798
G1 X83.278 Y63.147 E18.99458
G1 X85.863 Y63.82 E19.11896
G1 X88.28 Y64.376 E19.23445
G1 X90.821 Y64.885 E19.35512
G1 X93.244 Y65.299 E19.46958
G1 X95.805 Y65.663 E19.59003
G1 X98.282 Y65.944 E19.7061
G1 X100.804 Y66.158 E19.82396
G1 X103.327 Y66.301 E19.94163
G1 X105.865 Y66.372 E20.05986
G1 X108.376 Y66.372 E20.17678
G1 X110.928 Y66.299 E20.29566
G1 X113.431 Y66.157 E20.4124
G1 X115.968 Y65.941 E20.53096
G1 X118.474 Y65.656 E20.6484
G1 X120.96 Y65.301 E20.76533
G1 X123.502 Y64.866 E20.88542
G1 X125.903 Y64.384 E20.99945
G1 X128.409 Y63.807 E21.11919
G1 X130.662 Y63.224 E21.22756
G1 X131.733 Y62.933 E21.27924
G1 X132.631 Y62.73 E21.32211
G1 X133.914 Y62.579 E21.38226
G1 X134.02 Y62.573 E21.38721
G1 X134.491 Y62.557 E21.40915
G1 X135.116 Y62.55 E21.43825
G1 X151.295 Y62.551 E22.19162
G1 X151.993 Y62.561 E22.22412
G1 X152.912 Y62.614 E22.26699
G1 X153.823 Y62.747 E22.30985
G1 X154.719 Y62.958 E22.35272
G1 X155.593 Y63.246 E22.39557
G1 X156.44 Y63.609 E22.43848
G1 X157.251 Y64.044 E22.48133
G1 X158.021 Y64.548 E22.52418
G1 X158.745 Y65.117 E22.56706
G1 X159.417 Y65.747 E22.60995
G1 X160.032 Y66.432 E22.65282
G1 X160.585 Y67.168 E22.69568
G1 X161.072 Y67.949 E22.73854
G1 X161.489 Y68.77 E22.78142
G1 X161.834 Y69.624 E22.82431
G1 X162.103 Y70.504 E22.86716
G1 X162.295 Y71.405 E22.91005
G1 X162.408 Y72.318 E22.95289
G1 X162.437 Y72.859 E22.97812
G1 X162.446 Y73.176 E22.99288
G1 X162.45 Y73.477 E23.0069
G1 X162.449 Y146.245 E26.39528
G1 X162.44 Y146.972 E26.42914
G1 X162.389 Y147.891 E26.472
G1 X162.258 Y148.803 E26.5149
G1 X162.048 Y149.699 E26.55775
G1 X161.762 Y150.574 E26.60062
G1 X161.401 Y151.421 E26.64349
G1 X160.967 Y152.233 E26.68636
G1 X160.465 Y153.005 E26.72924
G1 X159.897 Y153.73 E26.77213
G1 X159.269 Y154.403 E26.81499
G1 X158.585 Y155.019 E26.85785
G1 X157.85 Y155.573 E26.90071
G1 X157.07 Y156.062 E26.94357
G1 X156.25 Y156.481 E26.98645
G1 X155.397 Y156.827 E27.02932
G1 X154.517 Y157.098 E27.07219
G1 X153.617 Y157.291 E27.11505
G1 X152.703 Y157.406 E27.15795
G1 X152.138 Y157.437 E27.1843
G1 X151.817 Y157.446 E27.19925
G1 X151.52 Y157.45 E27.21308
G1 X68.72 Y157.449 E31.06859
G1 X68.022 Y157.44 E31.1011
G1 X67.103 Y157.388 E31.14396
G1 X66.192 Y157.257 E31.18682
G1 X65.296 Y157.047 E31.22967
G1 X64.421 Y156.76 E31.27255
G1 X63.574 Y156.398 E31.31544
G1 X62.762 Y155.964 E31.35831
G1 X61.991 Y155.462 E31.40115
G1 X61.266 Y154.894 E31.44404
G1 X60.593 Y154.265 E31.48693
G1 X59.978 Y153.581 E31.52976
G1 X59.424 Y152.846 E31.57262
G1 X58.936 Y152.065 E31.6155
G1 X58.517 Y151.245 E31.65838
G1 X58.171 Y150.392 E31.70124
G1 X57.901 Y149.512 E31.7441
G1 X57.708 Y148.611 E31.78701
G1 X57.594 Y147.698 E31.82985
G1 X57.563 Y147.127 E31.85648
G1 X57.554 Y146.794 E31.87199
G1 X57.55 Y146.508 E31.88531
G1 X57.551 Y73.681 E35.27644
G1 X57.56 Y73.016 E35.30741
G1 X57.612 Y72.096 E35.35032
G1 X57.744 Y71.185 E35.39318
G1 X57.955 Y70.289 E35.43604
G1 X58.242 Y69.414 E35.47892
G1 X58.605 Y68.568 E35.52179
G1 X59.039 Y67.756 E35.56466
G1 X59.542 Y66.985 E35.60753
G1 X60.111 Y66.261 E35.6504
G1 X60.739 Y65.589 E35.69323
G0 F6000 X61.131 Y65.767
G1 F900 X61.812 Y65.174 E35.73528
G1 X62.544 Y64.644 E35.77736
G1 X63.319 Y64.181 E35.8194
G1 X64.132 Y63.788 E35.86145
G1 X64.977 Y63.468 E35.90352
G1 X65.846 Y63.225 E35.94554
G1 X66.734 Y63.059 E35.9876
G1 X67.873 Y62.963 E36.04083
G1 X68.194 Y62.954 E36.05578
G1 X68.48 Y62.95 E36.0691
G1 X79.008 Y62.95 E36.55932
G1 X79.856 Y62.961 E36.59881
G1 X80.758 Y63.014 E36.64089
G1 X81.651 Y63.146 E36.68292
G1 X82.414 Y63.325 E36.71941
G1 X83.22 Y63.547 E36.75834
G1 X85.737 Y64.201 E36.87944
G1 X88.191 Y64.766 E36.99669
G1 X90.74 Y65.276 E37.11774
G1 X93.231 Y65.702 E37.23541
G1 X95.701 Y66.053 E37.35158
G1 X98.236 Y66.341 E37.47038
G1 X100.786 Y66.557 E37.58955
G1 X103.327 Y66.701 E37.70806
G1 X105.854 Y66.772 E37.82577
G1 X108.388 Y66.772 E37.94376
G1 X110.927 Y66.699 E38.06204
G1 X113.487 Y66.554 E38.18143
G1 X116.011 Y66.339 E38.29939
G1 X118.504 Y66.055 E38.41622
G1 X121.047 Y65.693 E38.53583
G1 X123.541 Y65.265 E38.65366
G1 X125.999 Y64.773 E38.77038
G1 X128.528 Y64.19 E38.89123
G1 X130.714 Y63.624 E38.99638
G1 X131.838 Y63.319 E39.05061
G1 X132.719 Y63.121 E39.09266
G1 X133.937 Y62.978 E39.14976
G1 X134.043 Y62.972 E39.15471
G1 X134.496 Y62.957 E39.17581
G1 X135.116 Y62.95 E39.20468
G1 X151.289 Y62.951 E39.95776
G1 X151.987 Y62.961 E39.99027
G1 X152.889 Y63.014 E40.03234
G1 X153.782 Y63.146 E40.07438
G1 X154.66 Y63.357 E40.11642
G1 X155.516 Y63.645 E40.15848
G1 X156.343 Y64.007 E40.20051
G1 X157.135 Y64.442 E40.24259
G1 X157.886 Y64.944 E40.28465
G1 X158.589 Y65.511 E40.32671
G1 X159.239 Y66.138 E40.36876
G1 X159.831 Y66.82 E40.41081
G1 X160.361 Y67.551 E40.45286
G1 X160.823 Y68.327 E40.49491
G1 X161.216 Y69.14 E40.53696
G1 X161.534 Y69.985 E40.579
G1 X161.777 Y70.855 E40.62106
G1 X161.942 Y71.743 E40.66312
G1 X162.037 Y72.871 E40.71583
G1 X162.046 Y73.188 E40.73059
G1 X162.05 Y73.477 E40.74405
G1 X162.049 Y146.24 E44.1322
G1 X162.04 Y146.967 E44.16606
G1 X161.989 Y147.869 E44.20812
G1 X161.858 Y148.763 E44.2502
G1 X161.649 Y149.641 E44.29222
G1 X161.363 Y150.498 E44.33429
G1 X161.002 Y151.326 E44.37635
G1 X160.57 Y152.118 E44.41836
G1 X160.069 Y152.87 E44.46044
G1 X159.503 Y153.574 E44.5025
G1 X158.878 Y154.225 E44.54452
G1 X158.197 Y154.819 E44.5866
G1 X157.466 Y155.35 E44.62867
G1 X156.692 Y155.814 E44.67069
G1 X155.879 Y156.208 E44.71276
G1 X155.035 Y156.528 E44.75479
G1 X154.165 Y156.773 E44.79687
G1 X153.278 Y156.939 E44.83889
G1 X152.127 Y157.037 E44.89268
G1 X151.806 Y157.046 E44.90764
G1 X151.52 Y157.05 E44.92096
G1 X68.725 Y157.049 E48.77624
G1 X68.027 Y157.04 E48.80874
G1 X67.126 Y156.989 E48.85076
G1 X66.232 Y156.857 E48.89284
G1 X65.354 Y156.648 E48.93487
G1 X64.497 Y156.361 E48.97695
G1 X63.67 Y156 E49.01897
G1 X62.877 Y155.567 E49.06104
G1 X62.126 Y155.066 E49.10308
G1 X61.422 Y154.5 E49.14514
G1 X60.771 Y153.874 E49.18719
G1 X60.178 Y153.193 E49.22924
G1 X59.648 Y152.462 E49.27129
G1 X59.184 Y151.687 E49.31335
G1 X58.79 Y150.874 E49.35541
G1 X58.47 Y150.03 E49.39744
G1 X58.226 Y149.16 E49.43952
G1 X58.06 Y148.272 E49.48158
G1 X57.963 Y147.117 E49.53555
G1 X57.954 Y146.784 E49.55107
G1 X57.95 Y146.508 E49.56392
G1 X57.951 Y73.686 E52.95482
G1 X57.96 Y73.021 E52.98578
G1 X58.012 Y72.119 E53.02786
G1 X58.144 Y71.226 E53.06989
G1 X58.354 Y70.348 E53.11193
G1 X58.641 Y69.491 E53.15401
G1 X59.003 Y68.664 E53.19605
G1 X59.436 Y67.872 E53.23808
G1 X59.938 Y67.121 E53.28014
G1 X60.505 Y66.417 E53.32223
G1 X61.131 Y65.767 E53.36425
G1 F2400 E43.36425
;MESH:holder.stl
G0 F6000 X68.57 Y72.485
G0 X68.57 Y73.57
G0 X79.086 Y74.325
G0 X82.442 Y78.586
G0 X85.947 Y79.358
G0 X82.906 Y90.679
G0 X80.469 Y101.657
G0 X80.083 Y110.997
G0 X80.153 Y111.383
G0 X85.396 Y123.4
G0 X85.545 Y123.631
G0 X91.947 Y130.801
G0 X92.21 Y131.002
G0 X102.573 Y136.12
G0 X102.893 Y136.207
G0 X114.532 Y137.1
G0 X114.893 Y137.054
G0 X125.593 Y133.236
G0 X132.976 Y128.828
G0 X138.264 Y122.164
G0 X142.094 Y114.598
G0 X143.815 Y106.068
G0 X139.108 Y88.183
G0 X134.812 Y78.577
G0 X134.164 Y76.631
G0 X134.984 Y74.525
G0 X150.668 Y74.332
G0 X150.85 Y145.85
;TYPE:WALL-INNER
G1 F2400 E53.36425
G1 F900 X69.15 Y145.85 E57.16854
G1 X69.15 Y74.15 E60.5072
G1 X79.18 Y74.15 E60.97424
G1 X81.624 Y77.819 E61.17951
G1 X81.976 Y78.189 E61.20329
G1 X82.496 Y78.422 E61.22983
G1 X86.126 Y79.214 E61.40283
G1 X86.126 Y79.588 E61.42025
G1 X85.71 Y80.735 E61.47706
G1 X82.396 Y90.421 E61.95375
G1 X82.362 Y90.541 E61.95956
G1 X79.936 Y101.405 E62.47789
G1 X79.909 Y101.609 E62.48747
G1 X79.519 Y111.037 E62.92685
G1 X79.614 Y111.549 E62.9511
G1 X84.9 Y123.666 E63.56667
G1 X85.098 Y123.972 E63.58364
G1 X91.564 Y131.215 E64.03575
G1 X91.913 Y131.481 E64.05618
G1 X102.373 Y136.647 E64.59941
G1 X102.795 Y136.762 E64.61977
G1 X114.548 Y137.664 E65.16865
G1 X115.023 Y137.602 E65.19096
G1 X125.604 Y133.863 E65.71351
G1 X125.887 Y133.715 E65.72838
G1 X132.616 Y128.931 E66.11283
G1 X132.85 Y128.712 E66.12775
G1 X137.991 Y122.272 E66.51145
G1 X138.116 Y122.078 E66.5222
G1 X141.828 Y114.834 E66.90122
G1 X141.93 Y114.55 E66.91527
G1 X143.641 Y106.54 E67.29666
G1 X143.644 Y106.084 E67.3179
G1 X142.351 Y99.23 E67.64268
G1 X142.321 Y99.104 E67.64871
G1 X138.999 Y88.377 E68.17161
G1 X138.95 Y88.248 E68.17803
G1 X134.654 Y78.643 E68.66798
G1 X133.98 Y76.625 E68.76705
G1 X134.833 Y74.443 E68.87614
G1 X135.039 Y74.15 E68.89282
G1 X150.85 Y74.15 E69.62904
G1 X150.85 Y145.85 E72.9677
G0 F6000 X151.25 Y146.25
G1 F900 X68.75 Y146.25 E76.80924
G1 X68.75 Y73.75 E80.18514
G1 X79.394 Y73.75 E80.68077
G1 X81.938 Y77.568 E80.89441
G1 X82.212 Y77.856 E80.91292
G1 X82.622 Y78.04 E80.93384
G1 X86.526 Y78.892 E81.11991
G1 X86.526 Y79.659 E81.15562
G1 X86.087 Y80.868 E81.21552
G1 X82.778 Y90.54 E81.69151
G1 X82.75 Y90.639 E81.6963
G1 X80.33 Y101.475 E82.2133
G1 X80.308 Y101.643 E82.22119
G1 X79.921 Y111.009 E82.65768
G1 X79.999 Y111.431 E82.67767
G1 X85.254 Y123.476 E83.28959
G1 X85.417 Y123.729 E83.3036
G1 X91.837 Y130.92 E83.75247
G1 X92.125 Y131.14 E83.76935
G1 X102.516 Y136.271 E84.30897
G1 X102.864 Y136.366 E84.32577
G1 X113.71 Y137.197 E84.83228
G1 X114.537 Y137.262 E84.87091
G1 X114.93 Y137.211 E84.88936
G1 X125.444 Y133.495 E85.40862
G1 X125.677 Y133.373 E85.42087
G1 X132.362 Y128.621 E85.80278
G1 X132.555 Y128.44 E85.8151
G1 X137.666 Y122.038 E86.19655
G1 X137.769 Y121.878 E86.20541
G1 X141.46 Y114.675 E86.58228
G1 X141.544 Y114.44 E86.5939
G1 X143.241 Y106.496 E86.97216
G1 X143.244 Y106.12 E86.98967
G1 X141.96 Y99.314 E87.31217
G1 X141.935 Y99.21 E87.31715
G1 X138.621 Y88.508 E87.83883
G1 X138.58 Y88.401 E87.84416
G1 X134.281 Y78.789 E88.33446
G1 X133.555 Y76.613 E88.44128
G1 X134.478 Y74.252 E88.55932
G1 X134.83 Y73.75 E88.58787
G1 X151.25 Y73.75 E89.35245
G1 X151.25 Y146.25 E92.72836
G0 F6000 X151.65 Y146.65
;TYPE:WALL-OUTER
G1 F900 X68.35 Y146.65 E96.60715
G1 X68.35 Y73.35 E100.02031
G1 X79.608 Y73.35 E100.54453
G1 X82.252 Y77.317 E100.76652
G1 X82.448 Y77.523 E100.77976
G1 X82.748 Y77.658 E100.79508
G1 X86.802 Y78.543 E100.98829
G1 X86.926 Y78.56 E100.99412
G1 X86.926 Y79.73 E101.0486
G1 X86.464 Y81.001 E101.11157
G1 X83.16 Y90.659 E101.58688
G1 X83.138 Y90.737 E101.59065
G1 X80.724 Y101.544 E102.10627
G1 X80.707 Y101.677 E102.11251
G1 X80.323 Y110.981 E102.54612
G1 X80.384 Y111.313 E102.56183
G1 X85.608 Y123.287 E103.17015
G1 X85.736 Y123.486 E103.18116
G1 X92.11 Y130.625 E103.6268
G1 X92.337 Y130.798 E103.64009
G1 X102.658 Y135.895 E104.17609
G1 X102.933 Y135.97 E104.18937
G1 X113.741 Y136.798 E104.69411
G1 X114.527 Y136.86 E104.73082
G1 X114.837 Y136.82 E104.74537
G1 X125.284 Y133.127 E105.26133
G1 X125.468 Y133.031 E105.27099
G1 X132.108 Y128.311 E105.65034
G1 X132.26 Y128.168 E105.66005
