;FLAVOR:Marlin
;TIME:1952
;Filament used: 2.41763m
;Layer height: 0.28
;MINX:54.8
;MINY:60
;MINZ:0.28
;MAXX:165.2
;MAXY:160
;MAXZ:2.52
;Generated with Cura_SteamEngine 4.12.1
M140 S80
M105
M190 S80
M104 S235
M105
M109 S235
M82 ;absolute extrusion mode
; Ender 3 Custom Start G-code
G92 E0 ; Reset Extruder
G28 ; Home all axes
G1 Z2.0 F3000 ; Move Z Axis up little to prevent scratching of Heat Bed
G1 X0.1 Y20 Z0.3 F5000.0 ; Move to start position
G1 X0.1 Y200.0 Z0.3 F1500.0 E15 ; Draw the first line
G1 X0.4 Y200.0 Z0.3 F5000.0 ; Move to side a little
G1 X0.4 Y20 Z0.3 F1500.0 E30 ; Draw the second line
G92 E0 ; Reset Extruder
G1 Z2.0 F3000 ; Move Z Axis up little to prevent scratching of Heat Bed
G1 X5 Y20 Z0.3 F5000.0 ; Move over to prevent blob squish
G92 E0
G92 E0
G1 F2400 E-10
;LAYER_COUNT:9
;LAYER:0
M107
G0 F6000 X57.998 Y63.264 Z0.28
;TYPE:SKIRT
G1 F2400 E0
G1 F900 X58.686 Y62.627 E0.04366
G1 X59.426 Y62.051 E0.08732
G1 X60.212 Y61.539 E0.131
G1 X61.039 Y61.097 E0.17467
G1 X61.901 Y60.727 E0.21835
G1 X62.791 Y60.431 E0.26202
G1 X63.703 Y60.213 E0.30568
G1 X64.63 Y60.072 E0.34935
G1 X65.501 Y60.013 E0.39
G1 X65.822 Y60.004 E0.40495
G1 X66.13 Y60 E0.41929
G1 X78.159 Y60 E0.97941
G1 X79.018 Y60.011 E1.01941
G1 X79.954 Y60.064 E1.06307
G1 X80.547 Y60.14 E1.09091
G1 X81.8 Y60.408 E1.15057
G1 X82.753 Y60.671 E1.19661
G1 X83.214 Y60.805 E1.21896
G1 X85.645 Y61.443 E1.33599
G1 X88.105 Y62.016 E1.45361
G1 X90.548 Y62.509 E1.56966
G1 X93.046 Y62.943 E1.68772
G1 X95.536 Y63.303 E1.80487
G1 X98.036 Y63.592 E1.92205
G1 X100.535 Y63.81 E2.03886
G1 X103.049 Y63.958 E2.15612
G1 X105.573 Y64.034 E2.2737
G1 X108.095 Y64.04 E2.39114
G1 X110.584 Y63.975 E2.50708
G1 X113.137 Y63.835 E2.62613
G1 X115.611 Y63.63 E2.74173
G1 X118.127 Y63.349 E2.85961
G1 X120.608 Y63.002 E2.97626
G1 X123.096 Y62.58 E3.09377
G1 X125.585 Y62.086 E3.21193
G1 X128.008 Y61.534 E3.32764
G1 X130.474 Y60.898 E3.44623
G1 X131.583 Y60.581 E3.49994
G1 X132.263 Y60.396 E3.53275
G1 X133.178 Y60.188 E3.57644
G1 X134.107 Y60.06 E3.62011
G1 X134.711 Y60.019 E3.6483
G1 X135.12 Y60.007 E3.66735
G1 X135.756 Y60 E3.69697
G1 X153.651 Y60.001 E4.53024
G1 X154.349 Y60.011 E4.56274
G1 X155.285 Y60.065 E4.6064
G1 X156.213 Y60.197 E4.65004
G1 X157.127 Y60.409 E4.69373
G1 X158.019 Y60.698 E4.73739
G1 X158.884 Y61.061 E4.78108
G1 X159.714 Y61.497 E4.82473
G1 X160.505 Y62.002 E4.86843
G1 X161.249 Y62.573 E4.9121
G1 X161.942 Y63.205 E4.95577
G1 X162.579 Y63.893 E4.99943
G1 X163.154 Y64.634 E5.04311
G1 X163.665 Y65.42 E5.08676
G1 X164.107 Y66.248 E5.13047
G1 X164.476 Y67.11 E5.17413
G1 X164.771 Y68 E5.21779
G1 X164.989 Y68.912 E5.26145
G1 X165.129 Y69.84 E5.30515
G1 X165.187 Y70.701 E5.34533
G1 X165.196 Y71.021 E5.36024
G1 X165.2 Y71.33 E5.37463
G1 X165.199 Y148.4 E8.96333
G1 X165.19 Y149.127 E8.99718
G1 X165.139 Y150.064 E9.04088
G1 X165.007 Y150.992 E9.08453
G1 X164.798 Y151.906 E9.12818
G1 X164.511 Y152.799 E9.17186
G1 X164.149 Y153.665 E9.21557
G1 X163.715 Y154.496 E9.25922
G1 X163.211 Y155.287 E9.30289
G1 X162.642 Y156.032 E9.34655
G1 X162.011 Y156.727 E9.39026
G1 X161.324 Y157.365 E9.43391
G1 X160.585 Y157.942 E9.47757
G1 X159.799 Y158.454 E9.52125
G1 X158.973 Y158.897 E9.56489
G1 X158.111 Y159.269 E9.60861
G1 X157.222 Y159.565 E9.65224
G1 X156.31 Y159.785 E9.69593
G1 X155.383 Y159.926 E9.73959
G1 X154.499 Y159.987 E9.78085
G1 X154.178 Y159.996 E9.7958
G1 X153.87 Y160 E9.81014
G1 X66.365 Y159.999 E13.88474
G1 X65.667 Y159.99 E13.91725
G1 X64.731 Y159.938 E13.9609
G1 X63.802 Y159.806 E14.00459
G1 X62.888 Y159.596 E14.04826
G1 X61.995 Y159.309 E14.09194
G1 X61.13 Y158.946 E14.13562
G1 X60.299 Y158.512 E14.17927
G1 X59.508 Y158.008 E14.22295
G1 X58.763 Y157.438 E14.26662
G1 X58.069 Y156.807 E14.3103
G1 X57.432 Y156.12 E14.35393
G1 X56.855 Y155.38 E14.39762
G1 X56.343 Y154.594 E14.4413
G1 X55.9 Y153.767 E14.48498
G1 X55.529 Y152.906 E14.52864
G1 X55.233 Y152.016 E14.57231
G1 X55.014 Y151.104 E14.61599
G1 X54.873 Y150.177 E14.65965
G1 X54.813 Y149.288 E14.70114
G1 X54.804 Y148.955 E14.71665
G1 X54.8 Y148.658 E14.73048
G1 X54.801 Y71.525 E18.32212
G1 X54.81 Y70.86 E18.35308
G1 X54.863 Y69.924 E18.39674
G1 X54.995 Y68.995 E18.44043
G1 X55.206 Y68.081 E18.48411
G1 X55.494 Y67.189 E18.52776
G1 X55.857 Y66.324 E18.57144
G1 X56.292 Y65.493 E18.61511
G1 X56.796 Y64.703 E18.65875
G1 X57.366 Y63.958 E18.70243
G1 X57.998 Y63.264 E18.74613
G0 F6000 X58.389 Y63.439
G1 F900 X59.074 Y62.823 E18.78903
G1 X59.81 Y62.27 E18.8319
G1 X60.591 Y61.782 E18.87478
G1 X61.411 Y61.364 E18.91764
G1 X62.265 Y61.019 E18.96053
G1 X63.145 Y60.749 E19.00339
G1 X64.045 Y60.557 E19.04624
G1 X64.959 Y60.443 E19.08913
G1 X65.512 Y60.413 E19.11492
G1 X65.833 Y60.404 E19.12987
G1 X66.13 Y60.4 E19.1437
G1 X78.159 Y60.4 E19.70382
G1 X79.012 Y60.411 E19.74354
G1 X79.931 Y60.464 E19.78641
G1 X80.486 Y60.535 E19.81246
G1 X81.694 Y60.794 E19.86999
G1 X82.647 Y61.057 E19.91602
G1 X83.062 Y61.178 E19.93615
G1 X85.559 Y61.833 E20.05636
G1 X88.047 Y62.412 E20.1753
G1 X90.466 Y62.901 E20.29022
G1 X92.992 Y63.339 E20.4096
G1 X95.47 Y63.697 E20.52618
G1 X97.991 Y63.989 E20.64435
G1 X100.51 Y64.209 E20.7621
G1 X103.05 Y64.358 E20.88057
G1 X105.559 Y64.434 E20.99746
G1 X108.105 Y64.44 E21.11601
G1 X110.616 Y64.374 E21.23297
G1 X113.121 Y64.237 E21.34979
G1 X115.691 Y64.024 E21.46987
G1 X118.151 Y63.749 E21.58513
G1 X120.698 Y63.393 E21.70488
G1 X123.169 Y62.974 E21.82158
G1 X125.646 Y62.483 E21.93917
G1 X128.092 Y61.925 E22.05599
G1 X130.57 Y61.287 E22.17514
G1 X131.543 Y61.007 E22.22229
G1 X132.368 Y60.782 E22.2621
G1 X133.266 Y60.579 E22.30497
G1 X134.179 Y60.455 E22.34788
G1 X134.727 Y60.418 E22.37345
G1 X135.125 Y60.407 E22.39199
G1 X135.756 Y60.4 E22.42138
G1 X153.645 Y60.401 E23.25436
G1 X154.343 Y60.411 E23.28687
G1 X155.262 Y60.464 E23.32973
G1 X156.173 Y60.597 E23.3726
G1 X157.069 Y60.808 E23.41546
G1 X157.943 Y61.096 E23.45831
G1 X158.79 Y61.459 E23.50122
G1 X159.601 Y61.894 E23.54408
G1 X160.371 Y62.398 E23.58693
G1 X161.095 Y62.967 E23.62981
G1 X161.767 Y63.597 E23.6727
G1 X162.382 Y64.282 E23.71556
G1 X162.935 Y65.018 E23.75843
G1 X163.422 Y65.799 E23.80129
G1 X163.839 Y66.62 E23.84416
G1 X164.184 Y67.474 E23.88705
G1 X164.453 Y68.354 E23.9299
G1 X164.645 Y69.255 E23.9728
G1 X164.758 Y70.168 E24.01564
G1 X164.787 Y70.712 E24.041
G1 X164.796 Y71.032 E24.05591
G1 X164.8 Y71.33 E24.06979
G1 X164.799 Y148.395 E27.65825
G1 X164.79 Y149.122 E27.69211
G1 X164.739 Y150.041 E27.73497
G1 X164.608 Y150.953 E27.77787
G1 X164.398 Y151.849 E27.82072
G1 X164.112 Y152.724 E27.86359
G1 X163.751 Y153.571 E27.90646
G1 X163.317 Y154.383 E27.94933
G1 X162.815 Y155.155 E27.99221
G1 X162.247 Y155.88 E28.0351
G1 X161.619 Y156.553 E28.07796
G1 X160.935 Y157.169 E28.12082
G1 X160.2 Y157.723 E28.16368
G1 X159.42 Y158.212 E28.20655
G1 X158.6 Y158.631 E28.24943
G1 X157.747 Y158.977 E28.29229
G1 X156.867 Y159.248 E28.33516
G1 X155.967 Y159.441 E28.37802
G1 X155.053 Y159.556 E28.42092
G1 X154.488 Y159.587 E28.44727
G1 X154.167 Y159.596 E28.46222
G1 X153.87 Y159.6 E28.47605
G1 X66.37 Y159.599 E32.55042
G1 X65.672 Y159.59 E32.58292
G1 X64.753 Y159.538 E32.62578
G1 X63.842 Y159.407 E32.66864
G1 X62.946 Y159.197 E32.71149
G1 X62.071 Y158.91 E32.75437
G1 X61.224 Y158.548 E32.79726
G1 X60.412 Y158.114 E32.84013
G1 X59.641 Y157.612 E32.88297
G1 X58.916 Y157.044 E32.92586
G1 X58.243 Y156.415 E32.96875
G1 X57.628 Y155.731 E33.01158
G1 X57.074 Y154.996 E33.05444
G1 X56.586 Y154.215 E33.09732
G1 X56.167 Y153.395 E33.1402
G1 X55.821 Y152.542 E33.18307
G1 X55.551 Y151.662 E33.22593
G1 X55.358 Y150.761 E33.26883
G1 X55.244 Y149.848 E33.31168
G1 X55.213 Y149.277 E33.3383
G1 X55.204 Y148.944 E33.35382
G1 X55.2 Y148.658 E33.36713
G1 X55.201 Y71.531 E36.95849
G1 X55.21 Y70.866 E36.98946
G1 X55.262 Y69.946 E37.03237
G1 X55.394 Y69.035 E37.07523
G1 X55.605 Y68.139 E37.11809
G1 X55.892 Y67.264 E37.16097
G1 X56.255 Y66.418 E37.20384
G1 X56.689 Y65.606 E37.24671
G1 X57.192 Y64.835 E37.28958
G1 X57.761 Y64.111 E37.33245
G1 X58.389 Y63.439 E37.37528
G0 F6000 X58.781 Y63.617
G1 F900 X59.462 Y63.024 E37.41733
G1 X60.194 Y62.494 E37.45941
G1 X60.969 Y62.031 E37.50145
G1 X61.782 Y61.638 E37.54349
G1 X62.627 Y61.318 E37.58557
G1 X63.496 Y61.075 E37.62758
G1 X64.384 Y60.909 E37.66965
G1 X65.523 Y60.813 E37.72287
G1 X65.844 Y60.804 E37.73783
G1 X66.13 Y60.8 E37.75115
G1 X78.159 Y60.8 E38.31127
G1 X79.006 Y60.811 E38.35071
G1 X79.908 Y60.864 E38.39278
G1 X80.425 Y60.931 E38.41706
G1 X81.587 Y61.18 E38.47239
G1 X82.688 Y61.485 E38.52559
G1 X82.963 Y61.565 E38.53893
G1 X85.472 Y62.224 E38.65972
G1 X87.942 Y62.799 E38.77781
G1 X90.39 Y63.293 E38.8941
G1 X92.938 Y63.736 E39.01452
G1 X95.404 Y64.092 E39.13054
G1 X97.982 Y64.39 E39.25138
G1 X100.485 Y64.609 E39.36838
G1 X103.016 Y64.757 E39.48643
G1 X105.546 Y64.834 E39.60429
G1 X108.079 Y64.84 E39.72224
G1 X110.647 Y64.772 E39.84186
G1 X113.18 Y64.634 E39.95998
G1 X115.694 Y64.426 E40.07744
G1 X118.219 Y64.144 E40.19575
G1 X120.749 Y63.79 E40.3147
G1 X123.243 Y63.367 E40.43249
G1 X125.741 Y62.871 E40.55108
G1 X128.209 Y62.309 E40.66894
G1 X130.676 Y61.673 E40.78757
G1 X131.793 Y61.353 E40.84168
G1 X132.473 Y61.168 E40.87449
G1 X133.354 Y60.969 E40.91655
G1 X134.25 Y60.85 E40.95864
G1 X134.743 Y60.818 E40.98164
G1 X135.13 Y60.807 E40.99967
G1 X135.756 Y60.8 E41.02882
G1 X153.639 Y60.801 E41.86153
G1 X154.337 Y60.811 E41.89403
G1 X155.239 Y60.864 E41.93611
G1 X156.132 Y60.996 E41.97814
G1 X157.01 Y61.207 E42.02019
G1 X157.866 Y61.495 E42.06224
G1 X158.693 Y61.857 E42.10428
G1 X159.485 Y62.292 E42.14635
G1 X160.236 Y62.794 E42.18842
G1 X160.939 Y63.361 E42.23047
G1 X161.589 Y63.988 E42.27253
G1 X162.181 Y64.67 E42.31458
G1 X162.711 Y65.401 E42.35662
G1 X163.173 Y66.177 E42.39867
G1 X163.566 Y66.99 E42.44072
G1 X163.884 Y67.835 E42.48276
G1 X164.127 Y68.705 E42.52482
G1 X164.292 Y69.593 E42.56688
G1 X164.387 Y70.723 E42.61968
G1 X164.396 Y71.043 E42.63459
G1 X164.4 Y71.33 E42.64796
G1 X164.399 Y148.39 E46.23619
G1 X164.39 Y149.117 E46.27005
G1 X164.339 Y150.019 E46.31211
G1 X164.208 Y150.913 E46.35419
G1 X163.999 Y151.791 E46.39621
G1 X163.713 Y152.648 E46.43828
G1 X163.352 Y153.476 E46.48034
G1 X162.92 Y154.268 E46.52235
G1 X162.419 Y155.02 E46.56443
G1 X161.853 Y155.724 E46.60649
G1 X161.228 Y156.375 E46.64851
G1 X160.547 Y156.969 E46.69059
G1 X159.816 Y157.5 E46.73266
G1 X159.042 Y157.964 E46.77468
G1 X158.229 Y158.358 E46.81675
G1 X157.385 Y158.678 E46.85878
G1 X156.515 Y158.923 E46.90086
G1 X155.628 Y159.089 E46.94288
G1 X154.477 Y159.187 E46.99667
G1 X154.156 Y159.196 E47.01163
G1 X153.87 Y159.2 E47.02494
G1 X66.375 Y159.199 E51.09908
G1 X65.677 Y159.19 E51.13158
G1 X64.776 Y159.139 E51.1736
G1 X63.882 Y159.007 E51.21568
G1 X63.004 Y158.798 E51.25771
G1 X62.147 Y158.511 E51.29979
G1 X61.32 Y158.15 E51.34181
G1 X60.527 Y157.717 E51.38388
G1 X59.776 Y157.216 E51.42592
G1 X59.072 Y156.65 E51.46798
G1 X58.421 Y156.024 E51.51004
G1 X57.828 Y155.343 E51.55208
G1 X57.298 Y154.612 E51.59413
G1 X56.834 Y153.837 E51.63619
G1 X56.44 Y153.024 E51.67826
G1 X56.12 Y152.18 E51.72029
G1 X55.876 Y151.31 E51.76236
G1 X55.71 Y150.422 E51.80443
G1 X55.613 Y149.267 E51.8584
G1 X55.604 Y148.934 E51.87391
G1 X55.6 Y148.658 E51.88676
G1 X55.601 Y71.536 E55.47788
G1 X55.61 Y70.871 E55.50885
G1 X55.662 Y69.969 E55.55092
G1 X55.794 Y69.076 E55.59296
G1 X56.004 Y68.198 E55.63499
G1 X56.291 Y67.341 E55.67708
G1 X56.653 Y66.514 E55.71911
G1 X57.086 Y65.722 E55.76114
G1 X57.588 Y64.971 E55.80321
G1 X58.155 Y64.267 E55.8453
G1 X58.781 Y63.617 E55.88732
G1 F2400 E45.88732
;MESH:holder.stl
G0 F6000 X67.01 Y70.335
G0 X67.01 Y72.21
G0 X78.237 Y72.175
G0 X81.154 Y76.549
G0 X85.708 Y77.551
G0 X85.716 Y78.469
G0 X82.501 Y90.047
G0 X79.98 Y101.333
G0 X79.576 Y111.117
G0 X85.061 Y123.688
G0 X91.77 Y131.2
G0 X102.62 Y136.559
G0 X114.815 Y137.497
G0 X125.79 Y133.616
G0 X133.283 Y129.19
G0 X138.726 Y122.372
G0 X142.656 Y114.701
G0 X144.48 Y106.161
G0 X139.627 Y87.638
G0 X135.129 Y77.585
G0 X134.364 Y75.275
G0 X135.345 Y72.756
G0 X135.759 Y72.175
G0 X153.018 Y72.182
G0 X153.2 Y148
;TYPE:WALL-INNER
G1 F2400 E55.88732
G1 F900 X66.8 Y148 E59.91046
G1 X66.8 Y72 E63.44934
G1 X78.331 Y72 E63.98627
G1 X81.26 Y76.395 E64.23221
G1 X85.887 Y77.407 E64.45275
G1 X85.887 Y78.499 E64.5036
G1 X85.416 Y79.794 E64.56777
G1 X81.96 Y89.893 E65.06479
G1 X79.422 Y101.26 E65.60712
G1 X79.011 Y111.224 E66.07148
G1 X84.583 Y123.996 E66.72033
G1 X91.423 Y131.655 E67.19848
G1 X102.468 Y137.111 E67.77211
G1 X114.891 Y138.065 E68.35228
G1 X126.051 Y134.118 E68.90348
G1 X133.164 Y129.065 E69.30976
G1 X138.582 Y122.278 E69.71414
G1 X142.493 Y114.643 E70.11358
G1 X144.305 Y106.158 E70.51759
G1 X142.936 Y98.904 E70.86133
G1 X139.467 Y87.698 E71.40756
G1 X134.974 Y77.657 E71.91978
G1 X134.18 Y75.269 E72.03696
G1 X135.194 Y72.674 E72.1667
G1 X135.667 Y72 E72.20504
G1 X153.2 Y72 E73.02145
G1 X153.2 Y148 E76.56032
G0 F6000 X153.6 Y148.4
G1 F900 X66.4 Y148.4 E80.62072
G1 X66.4 Y71.6 E84.19685
G1 X78.545 Y71.6 E84.76237
G1 X81.503 Y76.039 E85.01076
G1 X86.056 Y77.034 E85.22777
G1 X86.287 Y77.04 E85.23853
G1 X86.287 Y78.57 E85.30977
G1 X85.793 Y79.927 E85.37702
G1 X82.346 Y90.002 E85.87285
G1 X79.82 Y101.312 E86.41247
G1 X79.414 Y111.148 E86.87086
G1 X84.924 Y123.777 E87.51245
G1 X91.67 Y131.331 E87.98404
G1 X102.576 Y136.718 E88.55045
G1 X114.837 Y137.66 E89.12305
G1 X125.865 Y133.76 E89.66773
G1 X132.886 Y128.771 E90.06879
G1 X138.244 Y122.06 E90.46866
G1 X142.113 Y114.508 E90.86377
G1 X143.897 Y106.153 E91.26159
G1 X142.547 Y99.001 E91.6005
G1 X139.092 Y87.839 E92.14457
G1 X134.599 Y77.797 E92.65684
G1 X133.754 Y75.258 E92.78144
G1 X134.837 Y72.486 E92.92002
G1 X135.459 Y71.6 E92.97043
G1 X153.6 Y71.6 E93.81515
G1 X153.6 Y148.4 E97.39128
G0 F6000 X154 Y148.8
;TYPE:WALL-OUTER
G1 F900 X66 Y148.8 E101.48893
G1 X66 Y71.2 E105.10231
G1 X78.759 Y71.2 E105.69642
G1 X81.746 Y75.683 E105.94726
G1 X86.081 Y76.63 E106.15388
G1 X86.137 Y76.625 E106.1565
G1 X86.48 Y76.651 E106.17251
G1 X86.687 Y76.892 E106.18731
G1 X86.687 Y78.641 E106.26875
G1 X86.17 Y80.06 E106.33907
G1 X82.732 Y90.111 E106.83371
G1 X80.218 Y101.364 E107.37061
G1 X79.817 Y111.072 E107.82304
G1 X85.265 Y123.558 E108.45738
G1 X91.917 Y131.007 E108.92241
G1 X102.684 Y136.325 E109.48158
G1 X114.783 Y137.255 E110.04663
G1 X125.679 Y133.402 E110.58478
G1 X132.608 Y128.478 E110.98059
G1 X137.906 Y121.842 E111.37599
G1 X141.733 Y114.373 E111.76677
G1 X143.489 Y106.148 E112.1584
G1 X142.158 Y99.098 E112.49247
G1 X138.717 Y87.98 E113.0344
G1 X134.224 Y77.937 E113.54671
G1 X133.328 Y75.247 E113.67873
G1 X134.48 Y72.298 E113.82616
G1 X135.252 Y71.2 E113.88866
G1 X154 Y71.2 E114.76164
G1 X154 Y148.8 E118.37502
G0 F6000 X153.73 Y148.53
G0 X153.09 Y147.61
G0 X152.81 Y147.61
;TYPE:SKIN
G1 F900 X67.19 Y147.61 E122.36185
G1 X67.19 Y72.39 E125.86441
G1 X78.123 Y72.39 E126.37349
G1 X81.022 Y76.742 E126.61699
G1 X85.497 Y77.721 E126.83029
G1 X85.497 Y78.429 E126.86326
G1 X85.048 Y79.664 E126.92445
G1 X81.584 Y89.787 E127.42265
G1 X79.034 Y101.209 E127.9676
G1 X78.617 Y111.298 E128.43779
G1 X84.25 Y124.209 E129.0937
G1 X91.183 Y131.971 E129.57832
G1 X102.363 Y137.494 E130.15896
G1 X114.943 Y138.461 E130.74647
G1 X126.232 Y134.467 E131.30406
G1 X133.435 Y129.351 E131.71546
G1 X138.911 Y122.491 E132.12418
G1 X142.864 Y114.775 E132.52787
G1 X144.703 Y106.162 E132.93797
G1 X143.315 Y98.81 E133.28636
G1 X139.832 Y87.56 E133.83474
G1 X135.337 Y77.512 E134.3473
G1 X134.595 Y75.28 E134.45682
G1 X135.539 Y72.863 E134.57764
G1 X135.87 Y72.39 E134.60453
G1 X152.81 Y72.39 E135.39332
G1 X152.81 Y147.61 E138.89588
G1 F2400 E128.89588
