;FLAVOR:Marlin
;TIME:1796
;Filament used: 2.16494m
;Layer height: 0.28
;MINX:56.8
;MINY:61.8
;MINZ:0.28
;MAXX:163.2
;MAXY:158.2
;MAXZ:2.52
;Generated with Cura_SteamEngine 4.12.1
M140 S80
M105
M190 S80
M104 S235
M105
M109 S235
M82 ;absolute extrusion mode
; Ender 3 Custom Start G-code
G92 E0 ; Reset Extruder
G28 ; Home all axes
G1 Z2.0 F3000 ; Move Z Axis up little to prevent scratching of Heat Bed
G1 X0.1 Y20 Z0.3 F5000.0 ; Move to start position
G1 X0.1 Y200.0 Z0.3 F1500.0 E15 ; Draw the first line
G1 X0.4 Y200.0 Z0.3 F5000.0 ; Move to side a little
G1 X0.4 Y20 Z0.3 F1500.0 E30 ; Draw the second line
G92 E0 ; Reset Extruder
G1 Z2.0 F3000 ; Move Z Axis up little to prevent scratching of Heat Bed
G1 X5 Y20 Z0.3 F5000.0 ; Move over to prevent blob squish
G92 E0
G92 E0
G1 F2400 E-10
;LAYER_COUNT:9
;LAYER:0
M107
G0 F6000 X59.998 Y65.064 Z0.28
;TYPE:SKIRT
G1 F2400 E0
G1 F900 X60.686 Y64.427 E0.04366
G1 X61.426 Y63.851 E0.08732
G1 X62.212 Y63.339 E0.131
G1 X63.039 Y62.897 E0.17467
G1 X63.901 Y62.527 E0.21835
G1 X64.791 Y62.231 E0.26202
G1 X65.703 Y62.013 E0.30568
G1 X66.63 Y61.872 E0.34935
G1 X67.501 Y61.813 E0.39
G1 X67.822 Y61.804 E0.40495
G1 X68.13 Y61.8 E0.41929
G1 X79.195 Y61.8 E0.93452
G1 X80.053 Y61.811 E0.97448
G1 X80.989 Y61.864 E1.01813
G1 X81.918 Y61.997 E1.06183
G1 X82.789 Y62.197 E1.10345
G1 X83.415 Y62.368 E1.13366
G1 X85.952 Y63.028 E1.25573
G1 X88.396 Y63.59 E1.3725
G1 X90.843 Y64.08 E1.48871
G1 X93.358 Y64.511 E1.60752
G1 X95.825 Y64.862 E1.72355
G1 X98.339 Y65.146 E1.84136
G1 X100.818 Y65.357 E1.95721
G1 X103.357 Y65.5 E2.07562
G1 X105.882 Y65.571 E2.19325
G1 X108.405 Y65.571 E2.31073
G1 X110.901 Y65.499 E2.427
G1 X113.403 Y65.358 E2.54369
G1 X115.917 Y65.143 E2.66118
G1 X118.417 Y64.859 E2.77834
G1 X120.926 Y64.501 E2.89635
G1 X123.394 Y64.077 E3.01295
G1 X125.9 Y63.574 E3.13197
G1 X128.283 Y63.026 E3.24583
G1 X130.44 Y62.469 E3.34956
G1 X131.454 Y62.194 E3.39848
G1 X132.369 Y61.987 E3.44217
G1 X133.298 Y61.859 E3.48583
G1 X133.94 Y61.817 E3.51579
G1 X134.316 Y61.807 E3.53331
G1 X134.95 Y61.8 E3.56283
G1 X151.651 Y61.801 E4.3405
G1 X152.349 Y61.811 E4.373
G1 X153.285 Y61.865 E4.41666
G1 X154.213 Y61.997 E4.46031
G1 X155.127 Y62.209 E4.504
G1 X156.019 Y62.498 E4.54766
G1 X156.884 Y62.861 E4.59134
G1 X157.714 Y63.297 E4.63499
G1 X158.505 Y63.802 E4.67869
G1 X159.249 Y64.373 E4.72236
G1 X159.942 Y65.005 E4.76604
G1 X160.579 Y65.693 E4.8097
G1 X161.154 Y66.434 E4.85337
G1 X161.665 Y67.22 E4.89702
G1 X162.107 Y68.048 E4.94073
G1 X162.476 Y68.91 E4.98439
G1 X162.771 Y69.8 E5.02805
G1 X162.989 Y70.712 E5.07171
G1 X163.129 Y71.64 E5.11541
G1 X163.187 Y72.501 E5.15559
G1 X163.196 Y72.821 E5.1705
G1 X163.2 Y73.13 E5.18489
G1 X163.199 Y146.6 E8.60596
G1 X163.19 Y147.327 E8.63982
G1 X163.139 Y148.264 E8.68351
G1 X163.007 Y149.192 E8.72716
G1 X162.798 Y150.106 E8.77082
G1 X162.511 Y150.999 E8.81449
G1 X162.149 Y151.865 E8.8582
G1 X161.715 Y152.696 E8.90185
G1 X161.211 Y153.487 E8.94553
G1 X160.642 Y154.232 E8.98918
G1 X160.011 Y154.927 E9.03289
G1 X159.324 Y155.565 E9.07654
G1 X158.585 Y156.142 E9.1202
G1 X157.799 Y156.654 E9.16388
G1 X156.973 Y157.097 E9.20753
G1 X156.111 Y157.469 E9.25124
G1 X155.222 Y157.765 E9.29487
G1 X154.31 Y157.985 E9.33856
G1 X153.383 Y158.126 E9.38222
G1 X152.499 Y158.187 E9.42348
G1 X152.178 Y158.196 E9.43843
G1 X151.87 Y158.2 E9.45278
G1 X68.365 Y158.199 E13.34112
G1 X67.667 Y158.19 E13.37362
G1 X66.731 Y158.138 E13.41727
G1 X65.802 Y158.006 E13.46097
G1 X64.888 Y157.796 E13.50463
G1 X63.995 Y157.509 E13.54831
G1 X63.13 Y157.146 E13.59199
G1 X62.299 Y156.712 E13.63565
G1 X61.508 Y156.208 E13.67932
G1 X60.763 Y155.638 E13.723
G1 X60.069 Y155.007 E13.76668
G1 X59.432 Y154.32 E13.8103
G1 X58.855 Y153.58 E13.85399
G1 X58.343 Y152.794 E13.89767
G1 X57.9 Y151.967 E13.94136
G1 X57.529 Y151.106 E13.98501
G1 X57.233 Y150.216 E14.02869
G1 X57.014 Y149.304 E14.07236
G1 X56.873 Y148.377 E14.11602
G1 X56.813 Y147.488 E14.15751
G1 X56.804 Y147.155 E14.17303
G1 X56.8 Y146.858 E14.18686
G1 X56.801 Y73.325 E17.61086
G1 X56.81 Y72.66 E17.64183
G1 X56.863 Y71.724 E17.68548
G1 X56.995 Y70.795 E17.72918
G1 X57.206 Y69.881 E17.77285
G1 X57.494 Y68.989 E17.8165
G1 X57.857 Y68.124 E17.86018
G1 X58.292 Y67.293 E17.90386
G1 X58.796 Y66.503 E17.94749
G1 X59.366 Y65.758 E17.99117
G1 X59.998 Y65.064 E18.03488
G0 F6000 X60.389 Y65.239
G1 F900 X61.074 Y64.623 E18.07778
G1 X61.81 Y64.07 E18.12064
G1 X62.591 Y63.582 E18.16352
G1 X63.411 Y63.164 E18.20638
G1 X64.265 Y62.819 E18.24927
G1 X65.145 Y62.549 E18.29213
G1 X66.045 Y62.357 E18.33498
G1 X66.959 Y62.243 E18.37787
G1 X67.512 Y62.213 E18.40366
G1 X67.833 Y62.204 E18.41861
G1 X68.13 Y62.2 E18.43244
G1 X79.195 Y62.2 E18.94768
G1 X80.047 Y62.211 E18.98735
G1 X80.966 Y62.264 E19.03022
G1 X81.877 Y62.397 E19.07309
G1 X82.684 Y62.583 E19.11165
G1 X83.286 Y62.747 E19.1407
G1 X85.868 Y63.419 E19.26494
G1 X88.307 Y63.98 E19.38147
G1 X90.762 Y64.472 E19.49806
G1 X93.311 Y64.909 E19.61848
G1 X95.756 Y65.256 E19.73347
G1 X98.293 Y65.543 E19.85236
G1 X100.832 Y65.76 E19.97102
G1 X103.324 Y65.9 E20.08724
G1 X105.871 Y65.971 E20.20588
G1 X108.382 Y65.971 E20.32281
G1 X110.933 Y65.898 E20.44164
G1 X113.461 Y65.755 E20.55954
G1 X115.96 Y65.541 E20.67633
G1 X118.448 Y65.258 E20.79293
G1 X121.013 Y64.892 E20.91358
G1 X123.441 Y64.476 E21.02828
G1 X125.954 Y63.971 E21.14764
G1 X128.437 Y63.4 E21.26628
G1 X130.491 Y62.87 E21.36505
G1 X131.559 Y62.58 E21.41658
G1 X132.457 Y62.378 E21.45944
G1 X133.369 Y62.254 E21.5023
G1 X133.954 Y62.217 E21.52959
G1 X134.321 Y62.207 E21.54669
G1 X134.95 Y62.2 E21.57598
G1 X151.645 Y62.201 E22.35337
G1 X152.343 Y62.211 E22.38587
G1 X153.262 Y62.264 E22.42874
G1 X154.173 Y62.397 E22.47161
G1 X155.069 Y62.608 E22.51447
G1 X155.943 Y62.896 E22.55732
G1 X156.79 Y63.259 E22.60023
G1 X157.601 Y63.694 E22.64308
G1 X158.371 Y64.198 E22.68593
G1 X159.095 Y64.767 E22.72881
G1 X159.767 Y65.397 E22.7717
G1 X160.382 Y66.082 E22.81457
G1 X160.935 Y66.818 E22.85744
G1 X161.422 Y67.599 E22.90029
G1 X161.839 Y68.42 E22.94317
G1 X162.184 Y69.274 E22.98606
G1 X162.453 Y70.154 E23.02891
G1 X162.645 Y71.055 E23.0718
G1 X162.758 Y71.968 E23.11464
G1 X162.787 Y72.512 E23.14001
G1 X162.796 Y72.832 E23.15491
G1 X162.8 Y73.13 E23.16879
G1 X162.799 Y146.595 E26.58963
G1 X162.79 Y147.322 E26.62348
G1 X162.739 Y148.241 E26.66634
G1 X162.608 Y149.153 E26.70925
G1 X162.398 Y150.049 E26.7521
G1 X162.112 Y150.924 E26.79496
G1 X161.751 Y151.771 E26.83784
G1 X161.317 Y152.583 E26.88071
G1 X160.815 Y153.355 E26.92359
G1 X160.247 Y154.08 E26.96647
G1 X159.619 Y154.753 E27.00933
G1 X158.935 Y155.369 E27.0522
G1 X158.2 Y155.923 E27.09505
G1 X157.42 Y156.412 E27.13792
G1 X156.6 Y156.831 E27.1808
G1 X155.747 Y157.177 E27.22366
G1 X154.867 Y157.448 E27.26654
G1 X153.967 Y157.641 E27.3094
G1 X153.053 Y157.756 E27.35229
G1 X152.488 Y157.787 E27.37864
G1 X152.167 Y157.796 E27.3936
G1 X151.87 Y157.8 E27.40743
G1 X68.37 Y157.799 E31.29554
G1 X67.672 Y157.79 E31.32804
G1 X66.753 Y157.738 E31.3709
G1 X65.842 Y157.607 E31.41376
G1 X64.946 Y157.397 E31.45661
G1 X64.071 Y157.11 E31.49949
G1 X63.224 Y156.748 E31.54238
G1 X62.412 Y156.314 E31.58525
G1 X61.641 Y155.812 E31.62809
G1 X60.916 Y155.244 E31.67098
G1 X60.243 Y154.615 E31.71387
G1 X59.628 Y153.931 E31.7567
G1 X59.074 Y153.196 E31.79956
G1 X58.586 Y152.415 E31.84244
G1 X58.167 Y151.595 E31.88532
G1 X57.821 Y150.742 E31.92818
G1 X57.551 Y149.862 E31.97105
G1 X57.358 Y148.961 E32.01395
G1 X57.244 Y148.048 E32.0568
G1 X57.213 Y147.477 E32.08342
G1 X57.204 Y147.144 E32.09893
G1 X57.2 Y146.858 E32.11225
G1 X57.201 Y73.331 E35.53598
G1 X57.21 Y72.666 E35.56695
G1 X57.262 Y71.746 E35.60985
G1 X57.394 Y70.835 E35.65272
G1 X57.605 Y69.939 E35.69558
G1 X57.892 Y69.064 E35.73846
G1 X58.255 Y68.218 E35.78132
G1 X58.689 Y67.406 E35.8242
G1 X59.192 Y66.635 E35.86706
G1 X59.761 Y65.911 E35.90994
G1 X60.389 Y65.239 E35.95277
G0 F6000 X60.781 Y65.417
G1 F900 X61.462 Y64.824 E35.99482
G1 X62.194 Y64.294 E36.0369
G1 X62.969 Y63.831 E36.07893
G1 X63.782 Y63.438 E36.12098
G1 X64.627 Y63.118 E36.16306
G1 X65.496 Y62.875 E36.20507
G1 X66.384 Y62.709 E36.24714
G1 X67.523 Y62.613 E36.30036
G1 X67.844 Y62.604 E36.31531
G1 X68.13 Y62.6 E36.32863
G1 X79.195 Y62.6 E36.84387
G1 X80.041 Y62.611 E36.88326
G1 X80.943 Y62.664 E36.92534
G1 X81.836 Y62.796 E36.96737
G1 X82.579 Y62.969 E37.00289
G1 X83.258 Y63.154 E37.03566
G1 X85.716 Y63.794 E37.15393
G1 X88.237 Y64.373 E37.27438
G1 X90.729 Y64.873 E37.39273
G1 X93.218 Y65.299 E37.51031
G1 X95.726 Y65.656 E37.62827
G1 X98.251 Y65.942 E37.7466
G1 X100.777 Y66.157 E37.86464
G1 X103.325 Y66.3 E37.98348
G1 X105.86 Y66.371 E38.10156
G1 X108.393 Y66.371 E38.21951
G1 X110.933 Y66.298 E38.33783
G1 X113.481 Y66.154 E38.45667
G1 X116.003 Y65.938 E38.57453
G1 X118.517 Y65.653 E38.69234
G1 X121.066 Y65.289 E38.81224
G1 X123.551 Y64.863 E38.92964
G1 X126.017 Y64.367 E39.04677
G1 X128.512 Y63.794 E39.16597
G1 X130.618 Y63.25 E39.26725
G1 X131.664 Y62.966 E39.31772
G1 X132.545 Y62.768 E39.35977
G1 X133.44 Y62.649 E39.40181
G1 X133.969 Y62.617 E39.42649
G1 X134.325 Y62.607 E39.44307
G1 X134.95 Y62.6 E39.47218
G1 X151.639 Y62.601 E40.24929
G1 X152.337 Y62.611 E40.28179
G1 X153.239 Y62.664 E40.32386
G1 X154.132 Y62.796 E40.3659
G1 X155.01 Y63.007 E40.40794
G1 X155.866 Y63.295 E40.45
G1 X156.693 Y63.657 E40.49204
G1 X157.485 Y64.092 E40.53411
G1 X158.236 Y64.594 E40.57617
G1 X158.939 Y65.161 E40.61823
G1 X159.589 Y65.788 E40.66028
G1 X160.181 Y66.47 E40.70233
G1 X160.711 Y67.201 E40.74438
G1 X161.173 Y67.977 E40.78643
G1 X161.566 Y68.79 E40.82848
G1 X161.884 Y69.635 E40.87052
G1 X162.127 Y70.505 E40.91258
G1 X162.292 Y71.393 E40.95464
G1 X162.387 Y72.523 E41.00744
G1 X162.396 Y72.843 E41.02235
G1 X162.4 Y73.13 E41.03571
G1 X162.399 Y146.59 E44.45632
G1 X162.39 Y147.317 E44.49017
G1 X162.339 Y148.219 E44.53224
G1 X162.208 Y149.113 E44.57431
G1 X161.999 Y149.991 E44.61634
G1 X161.713 Y150.848 E44.65841
G1 X161.352 Y151.676 E44.70047
G1 X160.92 Y152.468 E44.74248
G1 X160.419 Y153.22 E44.78455
G1 X159.853 Y153.924 E44.82661
G1 X159.228 Y154.575 E44.86864
G1 X158.547 Y155.169 E44.91071
G1 X157.816 Y155.7 E44.95278
G1 X157.042 Y156.164 E44.99481
G1 X156.229 Y156.558 E45.03687
G1 X155.385 Y156.878 E45.0789
G1 X154.515 Y157.123 E45.12099
G1 X153.628 Y157.289 E45.16301
G1 X152.477 Y157.387 E45.2168
G1 X152.156 Y157.396 E45.23175
G1 X151.87 Y157.4 E45.24507
G1 X68.375 Y157.399 E49.13295
G1 X67.677 Y157.39 E49.16545
G1 X66.776 Y157.339 E49.20747
G1 X65.882 Y157.207 E49.24955
G1 X65.004 Y156.998 E49.29158
G1 X64.147 Y156.711 E49.33366
G1 X63.32 Y156.35 E49.37568
G1 X62.527 Y155.917 E49.41775
G1 X61.776 Y155.416 E49.45979
G1 X61.072 Y154.85 E49.50185
G1 X60.421 Y154.224 E49.5439
G1 X59.828 Y153.543 E49.58595
G1 X59.298 Y152.812 E49.628
G1 X58.834 Y152.037 E49.67006
G1 X58.44 Y151.224 E49.71212
G1 X58.12 Y150.38 E49.75415
G1 X57.876 Y149.51 E49.79623
G1 X57.71 Y148.622 E49.83829
G1 X57.613 Y147.467 E49.89226
G1 X57.604 Y147.134 E49.90778
G1 X57.6 Y146.858 E49.92063
G1 X57.601 Y73.336 E53.34412
G1 X57.61 Y72.671 E53.37509
G1 X57.662 Y71.769 E53.41716
G1 X57.794 Y70.876 E53.45919
G1 X58.004 Y69.998 E53.50123
G1 X58.291 Y69.141 E53.54331
G1 X58.653 Y68.314 E53.58535
G1 X59.086 Y67.522 E53.62738
G1 X59.588 Y66.771 E53.66944
G1 X60.155 Y66.067 E53.71153
G1 X60.781 Y65.417 E53.75356
G1 F2400 E43.75356
;MESH:holder.stl
G0 F6000 X68.22 Y72.135
G0 X68.22 Y73.22
G0 X79.273 Y73.975
G0 X82.413 Y78.22
G0 X86.297 Y79.076
G0 X86.305 Y79.619
G0 X83.247 Y90.756
G0 X80.818 Y101.672
G0 X80.432 Y111.015
G0 X85.806 Y123.398
G0 X92.365 Y130.688
G0 X102.92 Y135.858
G0 X114.56 Y136.751
G0 X125.389 Y132.951
G0 X132.706 Y128.604
G0 X137.95 Y122.01
G0 X141.752 Y114.521
G0 X143.471 Y106.136
G0 X138.791 Y88.328
G0 X134.481 Y78.694
G0 X133.792 Y76.619
G0 X134.674 Y74.355
G0 X134.947 Y73.975
G0 X151.018 Y73.982
G0 X151.2 Y146.2
;TYPE:WALL-INNER
G1 F2400 E53.75356
G1 F900 X68.8 Y146.2 E57.59044
G1 X68.8 Y73.8 E60.96169
G1 X79.367 Y73.8 E61.45374
G1 X81.975 Y77.713 E61.6727
G1 X82.483 Y78.06 E61.70135
G1 X86.476 Y78.932 E61.89166
G1 X86.476 Y79.649 E61.92505
G1 X86.041 Y80.848 E61.98444
G1 X82.727 Y90.532 E62.46104
G1 X82.703 Y90.616 E62.46511
G1 X80.277 Y101.482 E62.98353
G1 X80.258 Y101.625 E62.99025
G1 X79.868 Y111.058 E63.42986
G1 X79.938 Y111.412 E63.44667
G1 X85.221 Y123.522 E64.06188
G1 X85.357 Y123.737 E64.07373
G1 X91.825 Y130.982 E64.52597
G1 X92.068 Y131.167 E64.54019
G1 X102.529 Y136.333 E65.08345
G1 X102.824 Y136.413 E65.09769
G1 X114.575 Y137.315 E65.64647
G1 X114.906 Y137.272 E65.66201
G1 X125.483 Y133.533 E66.18439
G1 X125.682 Y133.432 E66.19478
G1 X132.418 Y128.643 E66.57963
G1 X132.579 Y128.488 E66.59004
G1 X137.714 Y122.057 E66.97324
G1 X137.802 Y121.924 E66.98067
G1 X141.517 Y114.673 E67.36004
G1 X141.588 Y114.474 E67.36988
G1 X143.296 Y106.47 E67.75097
G1 X143.3 Y106.151 E67.76582
G1 X142.008 Y99.292 E68.09082
G1 X141.985 Y99.204 E68.09506
G1 X138.666 Y88.484 E68.6176
G1 X138.633 Y88.393 E68.62211
G1 X134.326 Y78.766 E69.1132
G1 X133.608 Y76.614 E69.21884
G1 X134.523 Y74.273 E69.33587
G1 X134.855 Y73.8 E69.36278
G1 X151.2 Y73.8 E70.12387
G1 X151.2 Y146.2 E73.49512
G0 F6000 X151.6 Y146.6
G1 F900 X68.4 Y146.6 E77.36926
G1 X68.4 Y73.4 E80.77776
G1 X79.581 Y73.4 E81.2984
G1 X82.265 Y77.427 E81.52374
G1 X82.644 Y77.686 E81.54512
G1 X86.868 Y78.608 E81.74644
G1 X86.876 Y78.608 E81.74681
G1 X86.876 Y79.72 E81.79859
G1 X86.418 Y80.981 E81.86106
G1 X83.109 Y90.652 E82.33701
G1 X83.091 Y90.715 E82.34006
G1 X80.671 Y101.552 E82.85711
G1 X80.657 Y101.659 E82.86213
G1 X80.27 Y111.027 E83.29872
G1 X80.322 Y111.292 E83.31129
G1 X85.575 Y123.334 E83.92305
G1 X85.677 Y123.495 E83.93192
G1 X92.098 Y130.687 E84.38086
G1 X92.28 Y130.826 E84.39152
G1 X102.671 Y135.957 E84.93114
G1 X102.892 Y136.017 E84.94181
G1 X114.565 Y136.913 E85.48695
G1 X114.813 Y136.881 E85.49859
G1 X125.325 Y133.165 E86.01776
G1 X125.474 Y133.089 E86.02555
G1 X132.162 Y128.334 E86.40766
G1 X132.282 Y128.218 E86.41543
G1 X137.39 Y121.822 E86.79657
G1 X137.456 Y121.722 E86.80215
G1 X141.149 Y114.514 E87.17928
G1 X141.202 Y114.365 E87.18664
G1 X142.897 Y106.425 E87.56469
G1 X142.9 Y106.186 E87.57582
G1 X141.617 Y99.379 E87.89836
G1 X141.6 Y99.313 E87.90154
G1 X138.287 Y88.612 E88.42315
G1 X138.262 Y88.544 E88.42653
G1 X133.953 Y78.911 E88.91791
G1 X133.183 Y76.602 E89.03125
G1 X134.166 Y74.085 E89.15707
G1 X134.647 Y73.4 E89.19605
G1 X151.6 Y73.4 E89.98545
G1 X151.6 Y146.6 E93.39395
G0 F6000 X152 Y147
;TYPE:WALL-OUTER
G1 F900 X68 Y147 E97.30534
G1 X68 Y73 E100.75109
G1 X79.795 Y73 E101.30032
G1 X82.555 Y77.141 E101.53204
G1 X82.805 Y77.312 E101.54615
G1 X86.923 Y78.211 E101.74241
G1 X87.234 Y78.23 E101.75692
G1 X87.276 Y78.278 E101.75989
G1 X87.276 Y79.791 E101.83034
G1 X86.795 Y81.114 E101.89589
G1 X83.491 Y90.772 E102.3712
G1 X83.479 Y90.814 E102.37323
G1 X81.065 Y101.621 E102.88885
G1 X81.056 Y101.692 E102.89218
G1 X80.672 Y110.997 E103.32583
G1 X80.706 Y111.173 E103.33418
G1 X85.929 Y123.146 E103.94243
G1 X85.997 Y123.253 E103.94833
G1 X92.371 Y130.392 E104.39397
G1 X92.492 Y130.484 E104.40105
G1 X102.813 Y135.581 E104.93705
G1 X102.96 Y135.621 E104.94414
G1 X114.555 Y136.511 E105.48564
G1 X114.72 Y136.49 E105.49339
G1 X125.166 Y132.797 E106.0093
G1 X125.265 Y132.746 E106.01449
G1 X131.906 Y128.025 E106.39389
G1 X131.986 Y127.948 E106.39906
G1 X137.066 Y121.587 E106.77812
G1 X137.11 Y121.52 E106.78186
G1 X140.781 Y114.355 E107.15673
G1 X140.816 Y114.256 E107.16162
G1 X142.498 Y106.38 E107.53663
G1 X142.5 Y106.221 E107.54403
G1 X141.226 Y99.465 E107.86416
