;FLAVOR:Marlin
;TIME:1835
;Filament used: 2.24715m
;Layer height: 0.28
;MINX:56.5
;MINY:61.5
;MINZ:0.28
;MAXX:163.5
;MAXY:158.5
;MAXZ:2.52
;Generated with Cura_SteamEngine 4.12.1
M140 S80
M105
M190 S80
M104 S235
M105
M109 S235
M82 ;absolute extrusion mode
; Ender 3 Custom Start G-code
G92 E0 ; Reset Extruder
G28 ; Home all axes
G1 Z2.0 F3000 ; Move Z Axis up little to prevent scratching of Heat Bed
G1 X0.1 Y20 Z0.3 F5000.0 ; Move to start position
G1 X0.1 Y200.0 Z0.3 F1500.0 E15 ; Draw the first line
G1 X0.4 Y200.0 Z0.3 F5000.0 ; Move to side a little
G1 X0.4 Y20 Z0.3 F1500.0 E30 ; Draw the second line
G92 E0 ; Reset Extruder
G1 Z2.0 F3000 ; Move Z Axis up little to prevent scratching of Heat Bed
G1 X5 Y20 Z0.3 F5000.0 ; Move over to prevent blob squish
G92 E0
G92 E0
G1 F2400 E-10
;LAYER_COUNT:9
;LAYER:0
M107
G0 F6000 X59.698 Y64.764 Z0.28
;TYPE:SKIRT
G1 F2400 E0
G1 F900 X60.386 Y64.127 E0.04366
G1 X61.126 Y63.551 E0.08732
G1 X61.912 Y63.039 E0.131
G1 X62.739 Y62.597 E0.17467
G1 X63.601 Y62.227 E0.21835
G1 X64.491 Y61.931 E0.26202
G1 X65.403 Y61.713 E0.30568
G1 X66.33 Y61.572 E0.34935
G1 X67.201 Y61.513 E0.39
G1 X67.522 Y61.504 E0.40495
G1 X67.83 Y61.5 E0.41929
G1 X79.356 Y61.5 E0.95599
G1 X80.217 Y61.511 E0.99609
G1 X81.153 Y61.564 E1.03974
G1 X82.082 Y61.697 E1.08344
G1 X82.972 Y61.902 E1.12597
G1 X83.413 Y62.023 E1.14726
G1 X85.976 Y62.689 E1.27057
G1 X88.422 Y63.251 E1.38743
G1 X90.84 Y63.736 E1.50227
G1 X93.376 Y64.169 E1.62206
G1 X95.824 Y64.518 E1.7372
G1 X98.334 Y64.802 E1.85483
G1 X100.85 Y65.016 E1.9724
G1 X103.366 Y65.157 E2.08974
G1 X105.891 Y65.228 E2.20736
G1 X108.414 Y65.228 E2.32485
G1 X110.9 Y65.157 E2.44065
G1 X113.432 Y65.012 E2.55875
G1 X115.933 Y64.799 E2.67562
G1 X118.427 Y64.515 E2.79251
G1 X120.926 Y64.159 E2.91004
G1 X123.391 Y63.736 E3.0265
G1 X125.909 Y63.23 E3.1461
G1 X128.314 Y62.677 E3.261
G1 X130.451 Y62.124 E3.36379
G1 X131.284 Y61.898 E3.40398
G1 X132.199 Y61.691 E3.44766
G1 X133.255 Y61.551 E3.49726
G1 X133.327 Y61.545 E3.50063
G1 X134.108 Y61.508 E3.53704
G1 X134.821 Y61.5 E3.57024
G1 X151.951 Y61.501 E4.36788
G1 X152.649 Y61.511 E4.40039
G1 X153.585 Y61.565 E4.44405
G1 X154.513 Y61.697 E4.48769
G1 X155.427 Y61.909 E4.53138
G1 X156.319 Y62.198 E4.57504
G1 X157.184 Y62.561 E4.61872
G1 X158.014 Y62.997 E4.66238
G1 X158.805 Y63.502 E4.70608
G1 X159.549 Y64.073 E4.74975
G1 X160.242 Y64.705 E4.79342
G1 X160.879 Y65.393 E4.83708
G1 X161.454 Y66.134 E4.88075
G1 X161.965 Y66.92 E4.92441
G1 X162.407 Y67.748 E4.96811
G1 X162.776 Y68.61 E5.01177
G1 X163.071 Y69.5 E5.05543
G1 X163.289 Y70.412 E5.0991
G1 X163.429 Y71.34 E5.1428
G1 X163.487 Y72.201 E5.18298
G1 X163.496 Y72.521 E5.19789
G1 X163.5 Y72.83 E5.21228
G1 X163.499 Y146.9 E8.66129
G1 X163.49 Y147.627 E8.69514
G1 X163.439 Y148.564 E8.73884
G1 X163.307 Y149.492 E8.78248
G1 X163.098 Y150.406 E8.82614
G1 X162.811 Y151.299 E8.86982
G1 X162.449 Y152.165 E8.91352
G1 X162.015 Y152.996 E8.95718
G1 X161.511 Y153.787 E9.00085
G1 X160.942 Y154.532 E9.0445
G1 X160.311 Y155.227 E9.08821
G1 X159.624 Y155.865 E9.13187
G1 X158.885 Y156.442 E9.17553
G1 X158.099 Y156.954 E9.21921
G1 X157.273 Y157.397 E9.26285
G1 X156.411 Y157.769 E9.30657
G1 X155.522 Y158.065 E9.3502
G1 X154.61 Y158.285 E9.39388
G1 X153.683 Y158.426 E9.43754
G1 X152.799 Y158.487 E9.4788
G1 X152.478 Y158.496 E9.49376
G1 X152.17 Y158.5 E9.5081
G1 X68.065 Y158.499 E13.42438
G1 X67.367 Y158.49 E13.45688
G1 X66.431 Y158.438 E13.50054
G1 X65.502 Y158.306 E13.54423
G1 X64.588 Y158.096 E13.5879
G1 X63.695 Y157.809 E13.63157
G1 X62.83 Y157.446 E13.67525
G1 X61.999 Y157.012 E13.71891
G1 X61.208 Y156.508 E13.76258
G1 X60.463 Y155.938 E13.80626
G1 X59.769 Y155.307 E13.84994
G1 X59.132 Y154.62 E13.89356
G1 X58.555 Y153.88 E13.93726
G1 X58.043 Y153.094 E13.98094
G1 X57.6 Y152.267 E14.02462
G1 X57.229 Y151.406 E14.06828
G1 X56.933 Y150.516 E14.11195
G1 X56.714 Y149.604 E14.15562
G1 X56.573 Y148.677 E14.19929
G1 X56.513 Y147.788 E14.24078
G1 X56.504 Y147.455 E14.25629
G1 X56.5 Y147.158 E14.27012
G1 X56.501 Y73.025 E17.72206
G1 X56.51 Y72.36 E17.75303
G1 X56.563 Y71.424 E17.79668
G1 X56.695 Y70.495 E17.84038
G1 X56.906 Y69.581 E17.88405
G1 X57.194 Y68.689 E17.9277
G1 X57.557 Y67.824 E17.97138
G1 X57.992 Y66.993 E18.01506
G1 X58.496 Y66.203 E18.05869
G1 X59.066 Y65.458 E18.10237
G1 X59.698 Y64.764 E18.14608
G0 F6000 X60.089 Y64.939
G1 F900 X60.774 Y64.323 E18.18898
G1 X61.51 Y63.77 E18.23184
G1 X62.291 Y63.282 E18.27472
G1 X63.111 Y62.864 E18.31758
G1 X63.965 Y62.519 E18.36047
G1 X64.845 Y62.249 E18.40333
G1 X65.745 Y62.057 E18.44618
G1 X66.659 Y61.943 E18.48907
G1 X67.212 Y61.913 E18.51486
G1 X67.533 Y61.904 E18.52981
G1 X67.83 Y61.9 E18.54364
G1 X79.356 Y61.9 E19.08034
G1 X80.211 Y61.911 E19.12016
G1 X81.13 Y61.964 E19.16302
G1 X82.042 Y62.097 E19.20594
G1 X82.866 Y62.288 E19.24532
G1 X83.355 Y62.422 E19.26893
G1 X85.816 Y63.062 E19.38734
G1 X88.367 Y63.648 E19.50922
G1 X90.793 Y64.134 E19.62443
G1 X93.294 Y64.562 E19.74258
G1 X95.789 Y64.917 E19.85993
G1 X98.291 Y65.201 E19.97718
G1 X100.827 Y65.416 E20.09569
G1 X103.333 Y65.557 E20.21256
G1 X105.88 Y65.628 E20.33121
G1 X108.391 Y65.628 E20.44813
G1 X110.932 Y65.555 E20.5665
G1 X113.455 Y65.411 E20.68417
G1 X115.976 Y65.197 E20.80198
G1 X118.492 Y64.91 E20.9199
G1 X120.984 Y64.555 E21.03711
G1 X123.466 Y64.129 E21.15437
G1 X125.963 Y63.627 E21.27297
G1 X128.433 Y63.059 E21.39098
G1 X130.579 Y62.504 E21.4942
G1 X131.389 Y62.284 E21.53328
G1 X132.287 Y62.081 E21.57615
G1 X133.289 Y61.95 E21.6232
G1 X133.361 Y61.944 E21.62657
G1 X134.113 Y61.908 E21.66162
G1 X134.821 Y61.9 E21.69459
G1 X151.945 Y61.901 E22.49196
G1 X152.643 Y61.911 E22.52446
G1 X153.562 Y61.964 E22.56733
G1 X154.473 Y62.097 E22.6102
G1 X155.369 Y62.308 E22.65306
G1 X156.243 Y62.596 E22.69591
G1 X157.09 Y62.959 E22.73882
G1 X157.901 Y63.394 E22.78167
G1 X158.671 Y63.898 E22.82452
G1 X159.395 Y64.467 E22.8674
G1 X160.067 Y65.097 E22.91029
G1 X160.682 Y65.782 E22.95316
G1 X161.235 Y66.518 E22.99603
G1 X161.722 Y67.299 E23.03888
G1 X162.139 Y68.12 E23.08176
G1 X162.484 Y68.974 E23.12465
G1 X162.753 Y69.854 E23.1675
G1 X162.945 Y70.755 E23.21039
G1 X163.058 Y71.668 E23.25323
G1 X163.087 Y72.212 E23.2786
G1 X163.096 Y72.532 E23.2935
G1 X163.1 Y72.83 E23.30738
G1 X163.099 Y146.895 E26.75616
G1 X163.09 Y147.622 E26.79001
G1 X163.039 Y148.541 E26.83287
G1 X162.908 Y149.453 E26.87577
G1 X162.698 Y150.349 E26.91863
G1 X162.412 Y151.224 E26.96149
G1 X162.051 Y152.071 E27.00436
G1 X161.617 Y152.883 E27.04724
G1 X161.115 Y153.655 E27.09011
G1 X160.547 Y154.38 E27.133
G1 X159.919 Y155.053 E27.17586
G1 X159.235 Y155.669 E27.21872
G1 X158.5 Y156.223 E27.26158
G1 X157.72 Y156.712 E27.30445
G1 X156.9 Y157.131 E27.34733
G1 X156.047 Y157.477 E27.39019
G1 X155.167 Y157.748 E27.43307
G1 X154.267 Y157.941 E27.47593
G1 X153.353 Y158.056 E27.51882
G1 X152.788 Y158.087 E27.54517
G1 X152.467 Y158.096 E27.56012
G1 X152.17 Y158.1 E27.57395
G1 X68.07 Y158.099 E31.49
G1 X67.372 Y158.09 E31.52251
G1 X66.453 Y158.038 E31.56537
G1 X65.542 Y157.907 E31.60822
G1 X64.646 Y157.697 E31.65108
G1 X63.771 Y157.41 E31.69396
G1 X62.924 Y157.048 E31.73685
G1 X62.112 Y156.614 E31.77972
G1 X61.341 Y156.112 E31.82256
G1 X60.616 Y155.544 E31.86544
G1 X59.943 Y154.915 E31.90834
G1 X59.328 Y154.231 E31.95117
G1 X58.774 Y153.496 E31.99403
G1 X58.286 Y152.715 E32.03691
G1 X57.867 Y151.895 E32.07979
G1 X57.521 Y151.042 E32.12265
G1 X57.251 Y150.162 E32.16551
G1 X57.058 Y149.261 E32.20842
G1 X56.944 Y148.348 E32.25126
G1 X56.913 Y147.777 E32.27789
G1 X56.904 Y147.444 E32.2934
G1 X56.9 Y147.158 E32.30672
G1 X56.901 Y73.031 E35.75838
G1 X56.91 Y72.366 E35.78935
G1 X56.962 Y71.446 E35.83226
G1 X57.094 Y70.535 E35.87512
G1 X57.305 Y69.639 E35.91798
G1 X57.592 Y68.764 E35.96086
G1 X57.955 Y67.918 E36.00373
G1 X58.389 Y67.106 E36.0466
G1 X58.892 Y66.335 E36.08947
G1 X59.461 Y65.611 E36.13235
G1 X60.089 Y64.939 E36.17517
G0 F6000 X60.481 Y65.117
G1 F900 X61.162 Y64.524 E36.21722
G1 X61.894 Y63.994 E36.2593
G1 X62.669 Y63.531 E36.30134
G1 X63.482 Y63.138 E36.34339
G1 X64.327 Y62.818 E36.38546
G1 X65.196 Y62.575 E36.42748
G1 X66.084 Y62.409 E36.46954
G1 X67.223 Y62.313 E36.52277
G1 X67.544 Y62.304 E36.53772
G1 X67.83 Y62.3 E36.55104
G1 X79.356 Y62.3 E37.08774
G1 X80.206 Y62.311 E37.12732
G1 X81.107 Y62.364 E37.16935
G1 X82.001 Y62.496 E37.21143
G1 X82.76 Y62.674 E37.24773
G1 X83.211 Y62.798 E37.26951
G1 X85.74 Y63.455 E37.39118
G1 X88.263 Y64.035 E37.51172
G1 X90.719 Y64.527 E37.62836
G1 X93.243 Y64.959 E37.74759
G1 X95.725 Y65.311 E37.86432
G1 X98.284 Y65.602 E37.98425
G1 X100.771 Y65.813 E38.10047
G1 X103.334 Y65.957 E38.22
G1 X105.869 Y66.028 E38.33809
G1 X108.402 Y66.028 E38.45604
G1 X110.967 Y65.955 E38.57552
G1 X113.475 Y65.811 E38.6925
G1 X116.019 Y65.595 E38.81138
G1 X118.527 Y65.309 E38.92892
G1 X121.031 Y64.952 E39.0467
G1 X123.582 Y64.514 E39.16722
G1 X126.026 Y64.023 E39.2833
G1 X128.508 Y63.453 E39.40188
G1 X130.706 Y62.884 E39.5076
G1 X131.494 Y62.67 E39.54562
G1 X132.375 Y62.472 E39.58767
G1 X133.322 Y62.348 E39.63214
G1 X133.394 Y62.342 E39.63551
G1 X134.118 Y62.308 E39.66926
G1 X134.821 Y62.3 E39.70199
G1 X151.939 Y62.301 E40.49908
G1 X152.637 Y62.311 E40.53158
G1 X153.539 Y62.364 E40.57366
G1 X154.432 Y62.496 E40.61569
G1 X155.31 Y62.707 E40.65774
G1 X156.166 Y62.995 E40.69979
G1 X156.993 Y63.357 E40.74183
G1 X157.785 Y63.792 E40.7839
G1 X158.536 Y64.294 E40.82597
G1 X159.239 Y64.861 E40.86802
G1 X159.889 Y65.488 E40.91007
G1 X160.481 Y66.17 E40.95213
G1 X161.011 Y66.901 E40.99417
G1 X161.473 Y67.677 E41.03622
G1 X161.866 Y68.49 E41.07827
G1 X162.184 Y69.335 E41.12031
G1 X162.427 Y70.205 E41.16237
G1 X162.592 Y71.093 E41.20443
G1 X162.687 Y72.223 E41.25723
G1 X162.696 Y72.543 E41.27214
G1 X162.7 Y72.83 E41.2855
G1 X162.699 Y146.89 E44.73405
G1 X162.69 Y147.617 E44.7679
G1 X162.639 Y148.519 E44.80997
G1 X162.508 Y149.413 E44.85204
G1 X162.299 Y150.291 E44.89407
G1 X162.013 Y151.148 E44.93614
G1 X161.652 Y151.976 E44.9782
G1 X161.22 Y152.768 E45.02021
G1 X160.719 Y153.52 E45.06228
G1 X160.153 Y154.224 E45.10434
G1 X159.528 Y154.875 E45.14637
G1 X158.847 Y155.469 E45.18844
G1 X158.116 Y156 E45.23052
G1 X157.342 Y156.464 E45.27254
G1 X156.529 Y156.858 E45.3146
G1 X155.685 Y157.178 E45.35663
G1 X154.815 Y157.423 E45.39872
G1 X153.928 Y157.589 E45.44074
G1 X152.777 Y157.687 E45.49453
G1 X152.456 Y157.696 E45.50948
G1 X152.17 Y157.7 E45.5228
G1 X68.075 Y157.699 E49.43862
G1 X67.377 Y157.69 E49.47112
G1 X66.476 Y157.639 E49.51314
G1 X65.582 Y157.507 E49.55522
G1 X64.704 Y157.298 E49.59725
G1 X63.847 Y157.011 E49.63933
G1 X63.02 Y156.65 E49.68135
G1 X62.227 Y156.217 E49.72342
G1 X61.476 Y155.716 E49.76546
G1 X60.772 Y155.15 E49.80752
G1 X60.121 Y154.524 E49.84957
G1 X59.528 Y153.843 E49.89162
G1 X58.998 Y153.112 E49.93367
G1 X58.534 Y152.337 E49.97573
G1 X58.14 Y151.524 E50.01779
G1 X57.82 Y150.68 E50.05982
G1 X57.576 Y149.81 E50.1019
G1 X57.41 Y148.922 E50.14396
G1 X57.313 Y147.767 E50.19793
G1 X57.304 Y147.434 E50.21345
G1 X57.3 Y147.158 E50.2263
G1 X57.301 Y73.036 E53.67773
G1 X57.31 Y72.371 E53.7087
G1 X57.362 Y71.469 E53.75077
G1 X57.494 Y70.576 E53.7928
G1 X57.704 Y69.698 E53.83484
G1 X57.991 Y68.841 E53.87692
G1 X58.353 Y68.014 E53.91896
G1 X58.786 Y67.222 E53.96099
G1 X59.288 Y66.471 E54.00305
G1 X59.855 Y65.767 E54.04514
G1 X60.481 Y65.117 E54.08716
G1 F2400 E44.08716
;MESH:holder.stl
G0 F6000 X67.92 Y71.835
G0 X67.92 Y72.92
G0 X79.434 Y73.675
G0 X82.236 Y77.876
G0 X86.597 Y78.835
G0 X86.605 Y79.673
G0 X83.542 Y90.81
G0 X81.118 Y101.664
G0 X80.73 Y111.077
G0 X86.006 Y123.171
G0 X92.461 Y130.399
G0 X102.899 Y135.554
G0 X114.632 Y136.456
G0 X125.191 Y132.723
G0 X132.418 Y128.484
G0 X137.659 Y121.921
G0 X141.443 Y114.535
G0 X143.2 Y106.309
G0 X138.529 Y88.482
G0 X134.2 Y78.802
G0 X133.473 Y76.613
G0 X134.41 Y74.21
G0 X134.792 Y73.675
G0 X151.318 Y73.682
G0 X151.5 Y146.5
;TYPE:WALL-INNER
G1 F2400 E54.08716
G1 F900 X68.5 Y146.5 E57.95199
G1 X68.5 Y73.5 E61.35118
G1 X79.528 Y73.5 E61.86469
G1 X82.342 Y77.722 E62.10095
G1 X86.776 Y78.691 E62.31229
G1 X86.776 Y79.703 E62.35941
G1 X86.325 Y80.943 E62.42085
G1 X83.001 Y90.656 E62.89888
G1 X80.56 Y101.591 E63.42059
G1 X80.165 Y111.184 E63.86766
G1 X85.528 Y123.479 E64.49226
G1 X92.114 Y130.854 E64.95267
G1 X102.747 Y136.106 E65.50489
G1 X114.708 Y137.024 E66.06348
G1 X125.452 Y133.225 E66.59412
G1 X132.299 Y128.359 E66.98526
G1 X137.515 Y121.827 E67.37449
G1 X141.28 Y114.477 E67.75903
G1 X143.025 Y106.306 E68.14808
G1 X141.707 Y99.321 E68.47907
G1 X138.369 Y88.542 E69.00451
G1 X134.045 Y78.874 E69.49766
G1 X133.289 Y76.608 E69.60889
G1 X134.259 Y74.128 E69.73289
G1 X134.7 Y73.5 E69.76862
G1 X151.5 Y73.5 E70.5509
G1 X151.5 Y146.5 E73.95009
G0 F6000 X151.9 Y146.9
G1 F900 X68.1 Y146.9 E77.85217
G1 X68.1 Y73.1 E81.2886
G1 X79.742 Y73.1 E81.83071
G1 X82.585 Y77.366 E82.06942
G1 X86.976 Y78.325 E82.2787
G1 X87.176 Y78.327 E82.28801
G1 X87.176 Y79.774 E82.35539
G1 X86.702 Y81.076 E82.41991
G1 X83.387 Y90.765 E82.89675
G1 X80.958 Y101.643 E83.41575
G1 X80.568 Y111.108 E83.85685
G1 X85.869 Y123.26 E84.47419
G1 X92.361 Y130.53 E84.92804
G1 X102.855 Y135.713 E85.47304
G1 X114.654 Y136.619 E86.02407
G1 X125.266 Y132.867 E86.54818
G1 X132.021 Y128.066 E86.93407
G1 X137.177 Y121.609 E87.31883
G1 X140.9 Y114.342 E87.69904
G1 X142.617 Y106.301 E88.0819
G1 X141.318 Y99.418 E88.40806
G1 X137.994 Y88.683 E88.93134
G1 X133.672 Y79.019 E89.42429
G1 X132.864 Y76.596 E89.54322
G1 X133.902 Y73.94 E89.67601
G1 X134.492 Y73.1 E89.72381
G1 X151.9 Y73.1 E90.5344
G1 X151.9 Y146.9 E93.97083
G0 F6000 X152.3 Y147.3
;TYPE:WALL-OUTER
G1 F900 X67.7 Y147.3 E97.91016
G1 X67.7 Y72.7 E101.38385
G1 X79.956 Y72.7 E101.95454
G1 X82.828 Y77.01 E102.19571
G1 X87.001 Y77.921 E102.3946
G1 X87.055 Y77.916 E102.39712
G1 X87.381 Y77.941 E102.41235
G1 X87.576 Y78.167 E102.42625
G1 X87.576 Y79.845 E102.50438
G1 X87.079 Y81.209 E102.57198
G1 X83.773 Y90.874 E103.04762
G1 X81.356 Y101.695 E103.56391
G1 X80.971 Y111.032 E103.99905
G1 X86.21 Y123.041 E104.60914
G1 X92.608 Y130.206 E105.05642
G1 X102.963 Y135.32 E105.59419
G1 X114.6 Y136.214 E106.13766
G1 X125.08 Y132.509 E106.65525
G1 X131.743 Y127.773 E107.03589
G1 X136.839 Y121.391 E107.41618
G1 X140.52 Y114.207 E107.79205
G1 X142.209 Y106.296 E108.16873
G1 X140.929 Y99.515 E108.49005
G1 X137.619 Y88.824 E109.01118
G1 X133.3 Y79.167 E109.50378
G1 X132.439 Y76.583 E109.6306
G1 X133.545 Y73.752 E109.77213
G1 X134.284 Y72.7 E109.83199
G1 X152.3 Y72.7 E110.67089
G1 X152.3 Y147.3 E114.14458
G0 F6000 X152.03 Y147.03
G0 X151.39 Y146.11
G0 X151.11 Y146.11
;TYPE:SKIN
G1 F900 X68.89 Y146.11 E117.97309
G1 X68.89 Y73.89 E121.33596
G1 X79.32 Y73.89 E121.82162
G1 X82.104 Y78.069 E122.05544
G1 X86.386 Y79.005 E122.25953
G1 X86.386 Y79.633 E122.28878
G1 X85.957 Y80.813 E122.34724
G1 X82.625 Y90.55 E122.82645
G1 X80.172 Y101.54 E123.35078
G1 X79.771 Y111.258 E123.80368
G1 X85.195 Y123.692 E124.43535
G1 X91.874 Y131.17 E124.90222
G1 X102.642 Y136.489 E125.46146
G1 X114.76 Y137.42 E126.02739
G1 X125.633 Y133.574 E126.56442
G1 X132.57 Y128.645 E126.96067
G1 X137.844 Y122.04 E127.35424
G1 X141.651 Y114.609 E127.74303
G1 X143.423 Y106.31 E128.13818
G1 X142.086 Y99.227 E128.47381
G1 X138.734 Y88.404 E129.0014
G1 X134.408 Y78.729 E129.49489
G1 X133.704 Y76.618 E129.59851
G1 X134.604 Y74.317 E129.71356
G1 X134.903 Y73.89 E129.73783
G1 X151.11 Y73.89 E130.49249
G1 X151.11 Y146.11 E133.85536
G1 F2400 E123.85536
G0 F6000 X151.39 Y146.11
G0 X151.39 Y74.582
G1 F2400 E133.85536
G0 F6000 X150.949 Y74.582
G1 F900 X150.417 Y74.05 E133.89039
G0 F6000 X149.852 Y74.05
