;FLAVOR:Marlin
;TIME:1702
;Filament used: 2.0441m
;Layer height: 0.28
;MINX:57.25
;MINY:62.25
;MINZ:0.28
;MAXX:162.75
;MAXY:157.75
;MAXZ:2.52
;Generated with Cura_SteamEngine 4.12.1
M140 S80
M105
M190 S80
M104 S235
M105
M109 S235
M82 ;absolute extrusion mode
; Ender 3 Custom Start G-code
G92 E0 ; Reset Extruder
G28 ; Home all axes
G1 Z2.0 F3000 ; Move Z Axis up little to prevent scratching of Heat Bed
G1 X0.1 Y20 Z0.3 F5000.0 ; Move to start position
G1 X0.1 Y200.0 Z0.3 F1500.0 E15 ; Draw the first line
G1 X0.4 Y200.0 Z0.3 F5000.0 ; Move to side a little
G1 X0.4 Y20 Z0.3 F1500.0 E30 ; Draw the second line
G92 E0 ; Reset Extruder
G1 Z2.0 F3000 ; Move Z Axis up little to prevent scratching of Heat Bed
G1 X5 Y20 Z0.3 F5000.0 ; Move over to prevent blob squish
G92 E0
G92 E0
G1 F2400 E-10
;LAYER_COUNT:9
;LAYER:0
M107
G0 F6000 X60.448 Y65.514 Z0.28
;TYPE:SKIRT
G1 F2400 E0
G1 F900 X61.136 Y64.877 E0.04366
G1 X61.876 Y64.301 E0.08732
G1 X62.662 Y63.789 E0.131
G1 X63.489 Y63.347 E0.17467
G1 X64.351 Y62.977 E0.21835
G1 X65.241 Y62.681 E0.26202
G1 X66.153 Y62.463 E0.30568
G1 X67.08 Y62.322 E0.34935
G1 X67.951 Y62.263 E0.39
G1 X68.272 Y62.254 E0.40495
G1 X68.58 Y62.25 E0.41929
G1 X78.955 Y62.25 E0.9024
G1 X79.813 Y62.261 E0.94235
G1 X80.749 Y62.314 E0.986
G1 X81.678 Y62.447 E1.0297
G1 X82.563 Y62.651 E1.07199
G1 X83.433 Y62.889 E1.11399
G1 X85.956 Y63.545 E1.23538
G1 X88.45 Y64.116 E1.35452
G1 X90.85 Y64.596 E1.46848
G1 X93.372 Y65.028 E1.58763
G1 X95.86 Y65.38 E1.70463
G1 X98.343 Y65.661 E1.82099
G1 X100.849 Y65.873 E1.9381
G1 X103.38 Y66.015 E2.05614
G1 X105.9 Y66.086 E2.17353
G1 X108.423 Y66.084 E2.29101
G1 X110.913 Y66.013 E2.407
G1 X113.431 Y65.869 E2.52444
G1 X115.938 Y65.655 E2.6416
G1 X118.432 Y65.37 E2.75849
G1 X120.957 Y65.009 E2.87726
G1 X123.416 Y64.587 E2.99343
G1 X125.906 Y64.086 E3.1117
G1 X128.318 Y63.531 E3.22695
G1 X130.37 Y63 E3.32565
G1 X131.699 Y62.641 E3.38975
G1 X132.614 Y62.435 E3.43342
G1 X133.543 Y62.308 E3.47708
G1 X134.071 Y62.271 E3.50173
G1 X134.525 Y62.257 E3.52288
G1 X135.155 Y62.25 E3.55221
G1 X151.201 Y62.251 E4.29938
G1 X151.899 Y62.261 E4.33189
G1 X152.835 Y62.315 E4.37555
G1 X153.763 Y62.447 E4.41919
G1 X154.677 Y62.659 E4.46288
G1 X155.569 Y62.948 E4.50654
G1 X156.434 Y63.311 E4.55022
G1 X157.264 Y63.747 E4.59388
G1 X158.055 Y64.252 E4.63758
G1 X158.799 Y64.823 E4.68125
G1 X159.492 Y65.455 E4.72492
G1 X160.129 Y66.143 E4.76858
G1 X160.704 Y66.884 E4.81225
G1 X161.215 Y67.67 E4.85591
G1 X161.657 Y68.498 E4.89961
G1 X162.026 Y69.36 E4.94327
G1 X162.321 Y70.25 E4.98693
G1 X162.539 Y71.162 E5.0306
G1 X162.679 Y72.09 E5.0743
G1 X162.737 Y72.951 E5.11448
G1 X162.746 Y73.271 E5.12939
G1 X162.75 Y73.58 E5.14378
G1 X162.749 Y146.15 E8.52294
G1 X162.74 Y146.877 E8.55679
G1 X162.689 Y147.814 E8.60049
G1 X162.557 Y148.742 E8.64414
G1 X162.348 Y149.656 E8.68779
G1 X162.061 Y150.549 E8.73147
G1 X161.699 Y151.415 E8.77518
G1 X161.265 Y152.246 E8.81883
G1 X160.761 Y153.037 E8.8625
G1 X160.192 Y153.782 E8.90615
G1 X159.561 Y154.477 E8.94987
G1 X158.874 Y155.115 E8.99352
G1 X158.135 Y155.692 E9.03718
G1 X157.349 Y156.204 E9.08086
G1 X156.523 Y156.647 E9.1245
G1 X155.661 Y157.019 E9.16822
G1 X154.772 Y157.315 E9.21185
G1 X153.86 Y157.535 E9.25553
G1 X152.933 Y157.676 E9.2992
G1 X152.049 Y157.737 E9.34046
G1 X151.728 Y157.746 E9.35541
G1 X151.42 Y157.75 E9.36975
G1 X68.815 Y157.749 E13.21619
G1 X68.117 Y157.74 E13.24869
G1 X67.181 Y157.688 E13.29234
G1 X66.252 Y157.556 E13.33604
G1 X65.338 Y157.346 E13.3797
G1 X64.445 Y157.059 E13.42338
G1 X63.58 Y156.696 E13.46706
G1 X62.749 Y156.262 E13.51072
G1 X61.958 Y155.758 E13.55439
G1 X61.213 Y155.188 E13.59807
G1 X60.519 Y154.557 E13.64174
G1 X59.882 Y153.87 E13.68537
G1 X59.305 Y153.13 E13.72906
G1 X58.793 Y152.344 E13.77274
G1 X58.35 Y151.517 E13.81643
G1 X57.979 Y150.656 E13.86008
G1 X57.683 Y149.766 E13.90376
G1 X57.464 Y148.854 E13.94743
G1 X57.323 Y147.927 E13.99109
G1 X57.263 Y147.038 E14.03258
G1 X57.254 Y146.705 E14.0481
G1 X57.25 Y146.408 E14.06193
G1 X57.251 Y73.775 E17.44402
G1 X57.26 Y73.11 E17.47499
G1 X57.313 Y72.174 E17.51864
G1 X57.445 Y71.245 E17.56234
G1 X57.656 Y70.331 E17.60602
G1 X57.944 Y69.439 E17.64966
G1 X58.307 Y68.574 E17.69334
G1 X58.742 Y67.743 E17.73702
G1 X59.246 Y66.953 E17.78065
G1 X59.816 Y66.208 E17.82433
G1 X60.448 Y65.514 E17.86804
G0 F6000 X60.839 Y65.689
G1 F900 X61.524 Y65.073 E17.91094
G1 X62.26 Y64.52 E17.9538
G1 X63.041 Y64.032 E17.99669
G1 X63.861 Y63.614 E18.03954
G1 X64.715 Y63.269 E18.08243
G1 X65.595 Y62.999 E18.12529
G1 X66.495 Y62.807 E18.16814
G1 X67.409 Y62.693 E18.21103
G1 X67.962 Y62.663 E18.23682
G1 X68.283 Y62.654 E18.25177
G1 X68.58 Y62.65 E18.26561
G1 X78.955 Y62.65 E18.74871
G1 X79.807 Y62.661 E18.78838
G1 X80.726 Y62.714 E18.83125
G1 X81.637 Y62.847 E18.87412
G1 X82.457 Y63.037 E18.91331
G1 X83.304 Y63.269 E18.9542
G1 X85.871 Y63.936 E19.0777
G1 X88.346 Y64.503 E19.19594
G1 X90.811 Y64.996 E19.31299
G1 X93.286 Y65.419 E19.42991
G1 X95.796 Y65.775 E19.54795
G1 X98.335 Y66.063 E19.66694
G1 X100.827 Y66.273 E19.78339
G1 X103.347 Y66.415 E19.90092
G1 X105.889 Y66.486 E20.01933
G1 X108.4 Y66.484 E20.13625
G1 X110.945 Y66.411 E20.2548
G1 X113.489 Y66.266 E20.37346
G1 X115.985 Y66.053 E20.4901
G1 X118.458 Y65.77 E20.60601
G1 X121.015 Y65.405 E20.72628
G1 X123.491 Y64.979 E20.84327
G1 X125.961 Y64.483 E20.96058
G1 X128.436 Y63.914 E21.07883
G1 X130.477 Y63.386 E21.17699
G1 X131.803 Y63.027 E21.24096
G1 X132.702 Y62.826 E21.28386
G1 X133.614 Y62.703 E21.32671
G1 X134.089 Y62.671 E21.34888
G1 X134.53 Y62.657 E21.36942
G1 X135.155 Y62.65 E21.39853
G1 X151.195 Y62.651 E22.14541
G1 X151.893 Y62.661 E22.17792
G1 X152.812 Y62.714 E22.22078
G1 X153.723 Y62.847 E22.26365
G1 X154.619 Y63.058 E22.30652
G1 X155.493 Y63.346 E22.34937
G1 X156.34 Y63.709 E22.39227
G1 X157.151 Y64.144 E22.43513
G1 X157.921 Y64.648 E22.47798
G1 X158.645 Y65.217 E22.52086
G1 X159.317 Y65.847 E22.56375
G1 X159.932 Y66.532 E22.60662
G1 X160.485 Y67.268 E22.64948
G1 X160.972 Y68.049 E22.69234
G1 X161.389 Y68.87 E22.73522
G1 X161.734 Y69.724 E22.77811
G1 X162.003 Y70.604 E22.82095
G1 X162.195 Y71.505 E22.86385
G1 X162.308 Y72.418 E22.90669
G1 X162.337 Y72.962 E22.93205
G1 X162.346 Y73.282 E22.94696
G1 X162.35 Y73.58 E22.96084
G1 X162.349 Y146.145 E26.33977
G1 X162.34 Y146.872 E26.37362
G1 X162.289 Y147.791 E26.41648
G1 X162.158 Y148.703 E26.45938
G1 X161.948 Y149.599 E26.50224
G1 X161.662 Y150.474 E26.5451
G1 X161.301 Y151.321 E26.58797
G1 X160.867 Y152.133 E26.63085
G1 X160.365 Y152.905 E26.67373
G1 X159.797 Y153.63 E26.71661
G1 X159.169 Y154.303 E26.75947
G1 X158.485 Y154.919 E26.80234
G1 X157.75 Y155.473 E26.84519
G1 X156.97 Y155.962 E26.88806
G1 X156.15 Y156.381 E26.93094
G1 X155.297 Y156.727 E26.9738
G1 X154.417 Y156.998 E27.01668
G1 X153.517 Y157.191 E27.05954
G1 X152.603 Y157.306 E27.10243
G1 X152.038 Y157.337 E27.12878
G1 X151.717 Y157.346 E27.14373
G1 X151.42 Y157.35 E27.15756
G1 X68.82 Y157.349 E31.00377
G1 X68.122 Y157.34 E31.03627
G1 X67.203 Y157.288 E31.07913
G1 X66.292 Y157.157 E31.12199
G1 X65.396 Y156.947 E31.16484
G1 X64.521 Y156.66 E31.20772
G1 X63.674 Y156.298 E31.25061
G1 X62.862 Y155.864 E31.29348
G1 X62.091 Y155.362 E31.33632
G1 X61.366 Y154.794 E31.37921
G1 X60.693 Y154.165 E31.4221
G1 X60.078 Y153.481 E31.46493
G1 X59.524 Y152.746 E31.50779
G1 X59.036 Y151.965 E31.55067
G1 X58.617 Y151.145 E31.59355
G1 X58.271 Y150.292 E31.63641
G1 X58.001 Y149.412 E31.67928
G1 X57.808 Y148.511 E31.72218
G1 X57.694 Y147.598 E31.76503
G1 X57.663 Y147.027 E31.79165
G1 X57.654 Y146.694 E31.80716
G1 X57.65 Y146.408 E31.82048
G1 X57.651 Y73.781 E35.2023
G1 X57.66 Y73.116 E35.23327
G1 X57.712 Y72.196 E35.27618
G1 X57.844 Y71.285 E35.31904
G1 X58.055 Y70.389 E35.3619
G1 X58.342 Y69.514 E35.40478
G1 X58.705 Y68.668 E35.44765
G1 X59.139 Y67.856 E35.49052
G1 X59.642 Y67.085 E35.53339
G1 X60.211 Y66.361 E35.57626
G1 X60.839 Y65.689 E35.61909
G0 F6000 X61.231 Y65.867
G1 F900 X61.912 Y65.274 E35.66114
G1 X62.644 Y64.744 E35.70322
G1 X63.419 Y64.281 E35.74526
G1 X64.232 Y63.888 E35.7873
G1 X65.077 Y63.568 E35.82938
G1 X65.946 Y63.325 E35.8714
G1 X66.834 Y63.159 E35.91346
G1 X67.973 Y63.063 E35.96668
G1 X68.294 Y63.054 E35.98164
G1 X68.58 Y63.05 E35.99496
G1 X78.955 Y63.05 E36.47806
G1 X79.801 Y63.061 E36.51746
G1 X80.703 Y63.114 E36.55953
G1 X81.596 Y63.246 E36.60156
G1 X82.351 Y63.423 E36.63767
G1 X83.169 Y63.647 E36.67716
G1 X85.786 Y64.327 E36.80307
G1 X88.257 Y64.893 E36.92111
G1 X90.73 Y65.388 E37.03855
G1 X93.239 Y65.817 E37.15707
G1 X95.761 Y66.174 E37.27568
G1 X98.258 Y66.457 E37.39269
G1 X100.806 Y66.672 E37.51176
G1 X103.348 Y66.815 E37.63031
G1 X105.878 Y66.886 E37.74817
G1 X108.411 Y66.884 E37.86611
G1 X110.98 Y66.811 E37.98579
G1 X113.475 Y66.668 E38.10215
G1 X116.028 Y66.45 E38.22147
G1 X118.528 Y66.164 E38.33863
G1 X121.062 Y65.802 E38.45783
G1 X123.572 Y65.371 E38.57641
G1 X126.058 Y64.871 E38.69449
G1 X128.521 Y64.305 E38.81217
G1 X130.665 Y63.75 E38.91529
G1 X131.908 Y63.414 E38.97525
G1 X132.789 Y63.217 E39.01728
G1 X134.107 Y63.071 E39.07903
G1 X134.535 Y63.057 E39.09897
G1 X135.155 Y63.05 E39.12784
G1 X151.189 Y63.051 E39.87445
G1 X151.887 Y63.061 E39.90696
G1 X152.789 Y63.114 E39.94903
G1 X153.682 Y63.246 E39.99106
G1 X154.56 Y63.457 E40.03311
G1 X155.416 Y63.745 E40.07517
G1 X156.243 Y64.107 E40.1172
G1 X157.035 Y64.542 E40.15928
G1 X157.786 Y65.044 E40.20134
G1 X158.489 Y65.611 E40.2434
G1 X159.139 Y66.238 E40.28545
G1 X159.731 Y66.92 E40.3275
G1 X160.261 Y67.651 E40.36954
G1 X160.723 Y68.427 E40.4116
G1 X161.116 Y69.24 E40.45365
G1 X161.434 Y70.085 E40.49569
G1 X161.677 Y70.955 E40.53775
G1 X161.842 Y71.843 E40.5798
G1 X161.937 Y72.973 E40.63261
G1 X161.946 Y73.293 E40.64751
G1 X161.95 Y73.58 E40.66088
G1 X161.949 Y146.14 E44.03958
G1 X161.94 Y146.867 E44.07343
G1 X161.889 Y147.769 E44.1155
G1 X161.758 Y148.663 E44.15757
G1 X161.549 Y149.541 E44.1996
G1 X161.263 Y150.398 E44.24167
G1 X160.902 Y151.226 E44.28373
G1 X160.47 Y152.018 E44.32574
G1 X159.969 Y152.77 E44.36781
G1 X159.403 Y153.474 E44.40987
G1 X158.778 Y154.125 E44.4519
G1 X158.097 Y154.719 E44.49397
G1 X157.366 Y155.25 E44.53604
G1 X156.592 Y155.714 E44.57807
G1 X155.779 Y156.108 E44.62013
G1 X154.935 Y156.428 E44.66216
G1 X154.065 Y156.673 E44.70425
G1 X153.178 Y156.839 E44.74627
G1 X152.027 Y156.937 E44.80006
G1 X151.706 Y156.946 E44.81501
G1 X151.42 Y156.95 E44.82833
G1 X68.825 Y156.949 E48.6743
G1 X68.127 Y156.94 E48.7068
G1 X67.226 Y156.889 E48.74883
G1 X66.332 Y156.757 E48.79091
G1 X65.454 Y156.548 E48.83293
G1 X64.597 Y156.261 E48.87501
G1 X63.77 Y155.9 E48.91703
G1 X62.977 Y155.467 E48.9591
G1 X62.226 Y154.966 E49.00114
G1 X61.522 Y154.4 E49.0432
G1 X60.871 Y153.774 E49.08526
G1 X60.278 Y153.093 E49.1273
G1 X59.748 Y152.362 E49.16935
G1 X59.284 Y151.587 E49.21141
G1 X58.89 Y150.774 E49.25348
G1 X58.57 Y149.93 E49.29551
G1 X58.326 Y149.06 E49.33758
G1 X58.16 Y148.172 E49.37965
G1 X58.063 Y147.017 E49.43362
G1 X58.054 Y146.684 E49.44913
G1 X58.05 Y146.408 E49.46198
G1 X58.051 Y73.786 E52.84357
G1 X58.06 Y73.121 E52.87453
G1 X58.112 Y72.219 E52.9166
G1 X58.244 Y71.326 E52.95864
G1 X58.454 Y70.448 E53.00067
G1 X58.741 Y69.591 E53.04276
G1 X59.103 Y68.764 E53.08479
G1 X59.536 Y67.972 E53.12683
G1 X60.038 Y67.221 E53.16889
G1 X60.605 Y66.517 E53.21098
G1 X61.231 Y65.867 E53.253
G1 F2400 E43.253
;MESH:holder.stl
G0 F6000 X68.67 Y72.585
G0 X68.67 Y73.67
G0 X79.033 Y74.425
G0 X82.411 Y78.681
G0 X85.847 Y79.438
G0 X82.808 Y90.657
G0 X80.369 Y101.653
G0 X79.983 Y110.994
G0 X80.064 Y111.423
G0 X85.305 Y123.44
G0 X85.471 Y123.698
G0 X91.872 Y130.866
G0 X92.166 Y131.091
G0 X102.528 Y136.209
G0 X102.884 Y136.307
G0 X114.529 Y137.2
G0 X114.926 Y137.146
G0 X125.652 Y133.317
G0 X133.054 Y128.89
G0 X138.353 Y122.21
G0 X142.192 Y114.619
G0 X143.913 Y106.053
G0 X139.202 Y88.148
G0 X134.9 Y78.528
G0 X134.271 Y76.632
G0 X135.074 Y74.568
G0 X150.568 Y74.432
G0 X150.75 Y145.75
;TYPE:WALL-INNER
G1 F2400 E53.253
G1 F900 X69.25 Y145.75 E57.04798
G1 X69.25 Y74.25 E60.37732
G1 X79.127 Y74.25 E60.83724
G1 X81.539 Y77.871 E61.03983
G1 X81.895 Y78.251 E61.06407
G1 X82.467 Y78.518 E61.09347
G1 X86.026 Y79.294 E61.26308
G1 X86.026 Y79.571 E61.27598
G1 X85.616 Y80.699 E61.33187
G1 X82.301 Y90.388 E61.8087
G1 X82.264 Y90.519 E61.81504
G1 X79.836 Y101.385 E62.33349
G1 X79.809 Y101.607 E62.3439
G1 X79.419 Y111.035 E62.78328
G1 X79.524 Y111.591 E62.80963
G1 X84.809 Y123.707 E63.42514
G1 X85.024 Y124.038 E63.44352
G1 X91.49 Y131.28 E63.89559
G1 X91.869 Y131.569 E63.91778
G1 X102.327 Y136.736 E64.46094
G1 X102.787 Y136.862 E64.48315
G1 X114.546 Y137.764 E65.03231
G1 X115.058 Y137.695 E65.05636
G1 X125.637 Y133.957 E65.57881
G1 X125.945 Y133.796 E65.595
G1 X132.674 Y129.012 E65.97944
G1 X132.928 Y128.774 E65.99565
G1 X138.069 Y122.335 E66.37932
G1 X138.205 Y122.124 E66.39101
G1 X141.917 Y114.879 E66.77007
G1 X142.028 Y114.571 E66.78531
G1 X143.736 Y106.563 E67.16659
G1 X143.742 Y106.068 E67.18964
G1 X142.449 Y99.212 E67.51451
G1 X142.416 Y99.074 E67.52112
G1 X139.095 Y88.353 E68.04373
G1 X139.044 Y88.213 E68.05067
G1 X134.745 Y78.6 E68.54101
G1 X134.087 Y76.627 E68.63786
G1 X134.923 Y74.486 E68.74488
G1 X135.089 Y74.25 E68.75832
G1 X150.75 Y74.25 E69.48756
G1 X150.75 Y145.75 E72.8169
G0 F6000 X151.15 Y146.15
G1 F900 X68.85 Y146.15 E76.64913
G1 X68.85 Y73.85 E80.01573
G1 X79.341 Y73.85 E80.50423
G1 X81.854 Y77.622 E80.71528
G1 X82.134 Y77.921 E80.73435
G1 X82.596 Y78.137 E80.7581
G1 X86.426 Y78.972 E80.94063
G1 X86.426 Y79.642 E80.97183
G1 X85.993 Y80.832 E81.0308
G1 X82.683 Y90.507 E81.50694
G1 X82.652 Y90.617 E81.51226
G1 X80.231 Y101.453 E82.02927
G1 X80.208 Y101.64 E82.03804
G1 X79.821 Y111.006 E82.47454
G1 X79.909 Y111.472 E82.49662
G1 X85.163 Y123.517 E83.10852
G1 X85.343 Y123.795 E83.12394
G1 X91.763 Y130.985 E83.57278
G1 X92.081 Y131.228 E83.59141
G1 X102.47 Y136.36 E84.13097
G1 X102.856 Y136.466 E84.14961
G1 X114.534 Y137.362 E84.69499
G1 X114.964 Y137.304 E84.71519
G1 X125.477 Y133.589 E85.23439
G1 X125.736 Y133.454 E85.24799
G1 X132.42 Y128.702 E85.62986
G1 X132.633 Y128.502 E85.64347
G1 X137.744 Y122.101 E86.02488
G1 X137.858 Y121.924 E86.03469
G1 X141.549 Y114.72 E86.4116
G1 X141.642 Y114.461 E86.42441
G1 X143.337 Y106.518 E86.8026
G1 X143.342 Y106.103 E86.82193
G1 X142.058 Y99.296 E87.14448
G1 X142.03 Y99.18 E87.15004
G1 X138.716 Y88.481 E87.67158
G1 X138.673 Y88.363 E87.67743
G1 X134.373 Y78.748 E88.16787
G1 X133.662 Y76.615 E88.27257
G1 X134.567 Y74.297 E88.38844
G1 X134.881 Y73.85 E88.41387
G1 X151.15 Y73.85 E89.17143
G1 X151.15 Y146.15 E92.53802
G0 F6000 X151.55 Y146.55
;TYPE:WALL-OUTER
G1 F900 X68.45 Y146.55 E96.4075
G1 X68.45 Y73.45 E99.81134
G1 X79.555 Y73.45 E100.32844
G1 X82.169 Y77.373 E100.54795
G1 X82.373 Y77.591 E100.56185
G1 X82.725 Y77.756 E100.57995
G1 X86.797 Y78.643 E100.77401
G1 X86.826 Y78.653 E100.77544
G1 X86.826 Y79.713 E100.82479
G1 X86.37 Y80.965 E100.88684
G1 X83.065 Y90.626 E101.36229
G1 X83.04 Y90.715 E101.3666
G1 X80.626 Y101.522 E101.88222
G1 X80.607 Y101.673 E101.8893
G1 X80.223 Y110.977 E102.32291
G1 X80.294 Y111.353 E102.34072
G1 X85.517 Y123.327 E102.94902
G1 X85.662 Y123.552 E102.96148
G1 X92.036 Y130.69 E103.40709
G1 X92.293 Y130.887 E103.42216
G1 X102.613 Y135.984 E103.95812
G1 X102.925 Y136.07 E103.97319
G1 X114.522 Y136.96 E104.51478
G1 X114.87 Y136.913 E104.53114
G1 X125.317 Y133.221 E105.04708
G1 X125.527 Y133.112 E105.05809
G1 X132.166 Y128.392 E105.4374
G1 X132.338 Y128.23 E105.4484
G1 X137.419 Y121.867 E105.82756
G1 X137.511 Y121.724 E105.83548
G1 X141.181 Y114.561 E106.21025
