;FLAVOR:Marlin
;TIME:2897
;Filament used: 1.5064m
;Layer height: 0.2
;MINX:12.473
;MINY:22.473
;MINZ:0.3
;MAXX:87.517
;MAXY:97.528
;MAXZ:13.1
;Generated with Cura_SteamEngine 4.12.1
M104 S220
M105
M109 S220
M82 ;absolute extrusion mode
;(**** start.gcode for Cadet****)
G28 Z
G28 X Y; Home extruder
G1 X55 Y55 F1000
G1 Z10 F200
G29
G1 Z15 F100
M107 ; Turn off fan
G90 ; Absolute positioning
M82 ; Extruder in absolute mode
G92 E0 ; Reset extruder position
G1 X90 Y6 Z0.27 F2000
G1 X20 Y6 Z0.27 E15 F1000 
G92 E0 ; Reset extruder position

M203 Z5
G92 E0
G92 E0
G1 F1500 E-6.5
;LAYER_COUNT:65
;LAYER:0
M107
G0 F3600 X76.707 Y23.96 Z0.3
;TYPE:SKIRT
G1 F1500 E0
G1 F750 X77.188 Y23.492 E0.03348
G1 X77.599 Y23.147 E0.06025
G1 X78.056 Y22.868 E0.08697
G1 X78.551 Y22.66 E0.11375
G1 X79.07 Y22.527 E0.14048
G1 X79.604 Y22.473 E0.16726
G1 X80.139 Y22.499 E0.19398
G1 X80.665 Y22.604 E0.22074
G1 X81.17 Y22.787 E0.24754
G1 X81.641 Y23.042 E0.27426
G1 X82.168 Y23.453 E0.3076
G1 X82.473 Y23.742 E0.32857
G1 X86.039 Y27.309 E0.5802
G1 X86.499 Y27.782 E0.61312
G1 X86.843 Y28.193 E0.63986
G1 X87.122 Y28.651 E0.66662
G1 X87.331 Y29.145 E0.69338
G1 X87.463 Y29.665 E0.72014
G1 X87.517 Y30.199 E0.74692
G1 X87.491 Y30.734 E0.77364
G1 X87.385 Y31.26 E0.80041
G1 X87.203 Y31.764 E0.82715
G1 X86.948 Y32.236 E0.85391
G1 X86.518 Y32.781 E0.88854
G1 X85.724 Y33.611 E0.94585
G1 X23.307 Y96.026 E5.34964
G1 X22.819 Y96.503 E5.38368
G1 X22.409 Y96.849 E5.41045
G1 X21.952 Y97.129 E5.43718
G1 X21.458 Y97.339 E5.46397
G1 X20.939 Y97.472 E5.49069
G1 X20.405 Y97.528 E5.51748
G1 X19.87 Y97.503 E5.5442
G1 X19.344 Y97.399 E5.57095
G1 X18.839 Y97.218 E5.59772
G1 X18.367 Y96.964 E5.62446
G1 X17.824 Y96.54 E5.65883
G1 X17.52 Y96.25 E5.67979
G1 X13.962 Y92.691 E5.93086
G1 X13.494 Y92.211 E5.96431
G1 X13.15 Y91.8 E5.99105
G1 X12.87 Y91.343 E6.01779
G1 X12.661 Y90.849 E6.04455
G1 X12.528 Y90.329 E6.07132
G1 X12.473 Y89.796 E6.09806
G1 X12.499 Y89.26 E6.12483
G1 X12.603 Y88.734 E6.15158
G1 X12.785 Y88.23 E6.17831
G1 X13.04 Y87.758 E6.20508
G1 X13.451 Y87.23 E6.23846
G1 X13.736 Y86.929 E6.25914
G1 X76.707 Y23.96 E10.70201
G0 F3600 X76.985 Y24.246
G1 F750 X77.466 Y23.778 E10.7355
G1 X77.856 Y23.456 E10.76073
G1 X78.291 Y23.198 E10.78596
G1 X78.761 Y23.012 E10.81118
G1 X79.254 Y22.903 E10.83637
G1 X79.759 Y22.873 E10.86161
G1 X80.262 Y22.922 E10.88682
G1 X80.751 Y23.05 E10.91204
G1 X81.214 Y23.254 E10.93728
G1 X81.639 Y23.528 E10.96251
G1 X82.123 Y23.96 E10.99488
G1 X85.721 Y27.556 E11.24866
G1 X86.212 Y28.061 E11.2838
G1 X86.535 Y28.45 E11.30903
G1 X86.792 Y28.885 E11.33424
G1 X86.978 Y29.356 E11.3595
G1 X87.087 Y29.849 E11.38469
G1 X87.117 Y30.354 E11.40993
G1 X87.068 Y30.857 E11.43514
G1 X86.939 Y31.346 E11.46037
G1 X86.736 Y31.809 E11.48559
G1 X86.462 Y32.234 E11.51082
G1 X86.23 Y32.505 E11.52862
G1 X85.441 Y33.328 E11.5855
G1 X23.028 Y95.74 E15.98904
G1 X22.54 Y96.217 E16.02309
G1 X22.151 Y96.541 E16.04834
G1 X21.717 Y96.8 E16.07356
G1 X21.247 Y96.987 E16.09879
G1 X20.754 Y97.097 E16.12399
G1 X20.249 Y97.129 E16.14924
G1 X19.746 Y97.08 E16.17445
G1 X19.257 Y96.953 E16.19966
G1 X18.793 Y96.751 E16.22491
G1 X18.368 Y96.478 E16.25011
G1 X17.863 Y96.025 E16.28395
G1 X14.277 Y92.441 E16.53689
G1 X13.781 Y91.932 E16.57235
G1 X13.458 Y91.543 E16.59758
G1 X13.2 Y91.108 E16.62281
G1 X13.013 Y90.638 E16.64804
G1 X12.903 Y90.145 E16.67325
G1 X12.873 Y89.64 E16.69848
G1 X12.922 Y89.137 E16.7237
G1 X13.049 Y88.648 E16.7489
G1 X13.252 Y88.185 E16.77413
G1 X13.526 Y87.76 E16.79935
G1 X13.952 Y87.281 E16.83133
G1 X76.985 Y24.246 E21.27872
G1 F1500 E14.77872
;MESH:line_stamp_narrow.stl
G0 F3600 X78.778 Y26.039
G0 X79.686 Y26.947
G0 X82.992 Y30.301
G1 F1500 E21.27872
G0 F3600 X83.092 Y30.301
;TYPE:WALL-INNER
G1 F750 X20.302 Y93.093 E25.70897
G1 X16.907 Y89.698 E25.9485
G1 X79.698 Y26.907 E30.37875
G1 X83.092 Y30.301 E30.61821
G0 F3600 X83.036 Y30.924
;TYPE:WALL-OUTER
G1 F750 X20.302 Y93.659 E35.04447
G1 X16.341 Y89.698 E35.32394
G1 X79.698 Y26.341 E39.79412
G1 X83.657 Y30.3 E40.07345
G1 X83.036 Y30.924 E40.11737
G0 F3600 X82.895 Y31.065
G0 X82.542 Y30.301
;TYPE:SKIN
G1 F750 X20.302 Y92.543 E44.50881
G1 X17.457 Y89.698 E44.70954
G1 X79.698 Y27.457 E49.10098
G1 X82.542 Y30.301 E49.30164
G0 F3600 X82.033 Y30.556
G1 F750 X79.442 Y27.965 E49.48444
G0 F3600 X79.159 Y28.248
G1 F750 X81.75 Y30.839 E49.66725
G0 F3600 X81.467 Y31.121
G1 F750 X78.877 Y28.531 E49.84999
G0 F3600 X78.594 Y28.813
G1 F750 X81.185 Y31.404 E50.0328
G0 F3600 X80.902 Y31.687
G1 F750 X78.311 Y29.096 E50.21561
G0 F3600 X78.028 Y29.379
G1 F750 X80.619 Y31.97 E50.39842
G0 F3600 X80.336 Y32.253
G1 F750 X77.745 Y29.662 E50.58123
G0 F3600 X77.462 Y29.945
G1 F750 X80.053 Y32.536 E50.76404
G0 F3600 X79.77 Y32.818
G1 F750 X77.179 Y30.228 E50.94681
G0 F3600 X76.897 Y30.51
G1 F750 X79.487 Y33.101 E51.12959
G0 F3600 X79.205 Y33.384
G1 F750 X76.614 Y30.793 E51.31239
G0 F3600 X76.331 Y31.076
G1 F750 X78.922 Y33.667 E51.4952
G0 F3600 X78.639 Y33.95
G1 F750 X76.048 Y31.359 E51.67801
G0 F3600 X75.765 Y31.642
G1 F750 X78.356 Y34.233 E51.86082
G0 F3600 X78.073 Y34.516
G1 F750 X75.482 Y31.925 E52.04363
G0 F3600 X75.2 Y32.208
G1 F750 X77.79 Y34.798 E52.22637
G0 F3600 X77.508 Y35.081
G1 F750 X74.917 Y32.49 E52.40918
G0 F3600 X74.634 Y32.773
G1 F750 X77.225 Y35.364 E52.59199
G0 F3600 X76.942 Y35.647
G1 F750 X74.351 Y33.056 E52.7748
G0 F3600 X74.068 Y33.339
G1 F750 X76.659 Y35.93 E52.9576
G0 F3600 X76.376 Y36.213
G1 F750 X73.785 Y33.622 E53.14041
G0 F3600 X73.503 Y33.905
G1 F750 X76.093 Y36.495 E53.32315
G0 F3600 X75.811 Y36.778
G1 F750 X73.22 Y34.187 E53.50596
G0 F3600 X72.937 Y34.47
G1 F750 X75.528 Y37.061 E53.68877
G0 F3600 X75.245 Y37.344
G1 F750 X72.654 Y34.753 E53.87158
G0 F3600 X72.371 Y35.036
G1 F750 X74.962 Y37.627 E54.05439
G0 F3600 X74.679 Y37.91
G1 F750 X72.088 Y35.319 E54.2372
G0 F3600 X71.805 Y35.602
G1 F750 X74.396 Y38.192 E54.41997
G0 F3600 X74.113 Y38.475
G1 F750 X71.523 Y35.884 E54.60275
G0 F3600 X71.24 Y36.167
G1 F750 X73.831 Y38.758 E54.78555
G0 F3600 X73.548 Y39.041
G1 F750 X70.957 Y36.45 E54.96836
G0 F3600 X70.674 Y36.733
G1 F750 X73.265 Y39.324 E55.15117
G0 F3600 X72.982 Y39.607
G1 F750 X70.391 Y37.016 E55.33398
G0 F3600 X70.108 Y37.299
G1 F750 X72.699 Y39.89 E55.51679
G0 F3600 X72.416 Y40.172
G1 F750 X69.826 Y37.582 E55.69953
G0 F3600 X69.543 Y37.864
G1 F750 X72.134 Y40.455 E55.88234
G0 F3600 X71.851 Y40.738
G1 F750 X69.26 Y38.147 E56.06515
G0 F3600 X68.977 Y38.43
G1 F750 X71.568 Y41.021 E56.24796
G0 F3600 X71.285 Y41.304
G1 F750 X68.694 Y38.713 E56.43077
G0 F3600 X68.411 Y38.996
G1 F750 X71.002 Y41.587 E56.61357
G0 F3600 X70.719 Y41.869
G1 F750 X68.129 Y39.279 E56.79631
G0 F3600 X67.846 Y39.561
G1 F750 X70.437 Y42.152 E56.97912
G0 F3600 X70.154 Y42.435
G1 F750 X67.563 Y39.844 E57.16193
G0 F3600 X67.28 Y40.127
G1 F750 X69.871 Y42.718 E57.34474
G0 F3600 X69.588 Y43.001
G1 F750 X66.997 Y40.41 E57.52755
G0 F3600 X66.714 Y40.693
G1 F750 X69.305 Y43.284 E57.71036
G0 F3600 X69.022 Y43.566
G1 F750 X66.431 Y40.976 E57.89313
G0 F3600 X66.149 Y41.258
G1 F750 X68.739 Y43.849 E58.07591
G0 F3600 X68.457 Y44.132
G1 F750 X65.866 Y41.541 E58.25871
G0 F3600 X65.583 Y41.824
G1 F750 X68.174 Y44.415 E58.44152
G0 F3600 X67.891 Y44.698
G1 F750 X65.3 Y42.107 E58.62433
G0 F3600 X65.017 Y42.39
G1 F750 X67.608 Y44.981 E58.80714
G0 F3600 X67.325 Y45.264
G1 F750 X64.734 Y42.673 E58.98995
G0 F3600 X64.452 Y42.956
G1 F750 X67.042 Y45.546 E59.17269
G0 F3600 X66.76 Y45.829
G1 F750 X64.169 Y43.238 E59.3555
G0 F3600 X63.886 Y43.521
G1 F750 X66.477 Y46.112 E59.53831
G0 F3600 X66.194 Y46.395
G1 F750 X63.603 Y43.804 E59.72112
G0 F3600 X63.32 Y44.087
G1 F750 X65.911 Y46.678 E59.90393
G0 F3600 X65.628 Y46.961
G1 F750 X63.037 Y44.37 E60.08673
G0 F3600 X62.755 Y44.653
G1 F750 X65.345 Y47.243 E60.26947
G0 F3600 X65.063 Y47.526
G1 F750 X62.472 Y44.935 E60.45228
G0 F3600 X62.189 Y45.218
G1 F750 X64.78 Y47.809 E60.63509
G0 F3600 X64.497 Y48.092
G1 F750 X61.906 Y45.501 E60.8179
G0 F3600 X61.623 Y45.784
G1 F750 X64.214 Y48.375 E61.00071
G0 F3600 X63.931 Y48.658
G1 F750 X61.34 Y46.067 E61.18352
G0 F3600 X61.057 Y46.35
G1 F750 X63.648 Y48.94 E61.36629
G0 F3600 X63.365 Y49.223
G1 F750 X60.775 Y46.632 E61.54907
G0 F3600 X60.492 Y46.915
G1 F750 X63.083 Y49.506 E61.73187
G0 F3600 X62.8 Y49.789
G1 F750 X60.209 Y47.198 E61.91468
G0 F3600 X59.926 Y47.481
G1 F750 X62.517 Y50.072 E62.09749
G0 F3600 X62.234 Y50.355
G1 F750 X59.643 Y47.764 E62.2803
G0 F3600 X59.36 Y48.047
G1 F750 X61.951 Y50.638 E62.46311
G0 F3600 X61.668 Y50.92
G1 F750 X59.078 Y48.33 E62.64585
G0 F3600 X58.795 Y48.612
G1 F750 X61.386 Y51.203 E62.82866
G0 F3600 X61.103 Y51.486
G1 F750 X58.512 Y48.895 E63.01147
G0 F3600 X58.229 Y49.178
G1 F750 X60.82 Y51.769 E63.19428
G0 F3600 X60.537 Y52.052
G1 F750 X57.946 Y49.461 E63.37709
G0 F3600 X57.663 Y49.744
G1 F750 X60.254 Y52.335 E63.55989
G0 F3600 X59.971 Y52.617
G1 F750 X57.381 Y50.027 E63.74263
G0 F3600 X57.098 Y50.309
G1 F750 X59.689 Y52.9 E63.92544
G0 F3600 X59.406 Y53.183
G1 F750 X56.815 Y50.592 E64.10825
G0 F3600 X56.532 Y50.875
G1 F750 X59.123 Y53.466 E64.29106
G0 F3600 X58.84 Y53.749
G1 F750 X56.249 Y51.158 E64.47387
G0 F3600 X55.966 Y51.441
G1 F750 X58.557 Y54.032 E64.65668
G0 F3600 X58.274 Y54.314
G1 F750 X55.683 Y51.724 E64.83945
G0 F3600 X55.401 Y52.006
G1 F750 X57.991 Y54.597 E65.02223
G0 F3600 X57.709 Y54.88
G1 F750 X55.118 Y52.289 E65.20503
G0 F3600 X54.835 Y52.572
G1 F750 X57.426 Y55.163 E65.38784
G0 F3600 X57.143 Y55.446
G1 F750 X54.552 Y52.855 E65.57065
G0 F3600 X54.269 Y53.138
G1 F750 X56.86 Y55.729 E65.75346
G0 F3600 X56.577 Y56.012
G1 F750 X53.986 Y53.421 E65.93627
G0 F3600 X53.704 Y53.704
G1 F750 X56.294 Y56.294 E66.11901
G0 F3600 X56.012 Y56.577
G1 F750 X53.421 Y53.986 E66.30182
G0 F3600 X53.138 Y54.269
G1 F750 X55.729 Y56.86 E66.48463
G0 F3600 X55.446 Y57.143
G1 F750 X52.855 Y54.552 E66.66744
G0 F3600 X52.572 Y54.835
G1 F750 X55.163 Y57.426 E66.85025
G0 F3600 X54.88 Y57.709
G1 F750 X52.289 Y55.118 E67.03305
G0 F3600 X52.006 Y55.401
G1 F750 X54.597 Y57.991 E67.21583
G0 F3600 X54.314 Y58.274
G1 F750 X51.724 Y55.683 E67.3986
G0 F3600 X51.441 Y55.966
G1 F750 X54.032 Y58.557 E67.58141
G0 F3600 X53.749 Y58.84
G1 F750 X51.158 Y56.249 E67.76422
G0 F3600 X50.875 Y56.532
G1 F750 X53.466 Y59.123 E67.94703
G0 F3600 X53.183 Y59.406
G1 F750 X50.592 Y56.815 E68.12984
G0 F3600 X50.309 Y57.098
G1 F750 X52.9 Y59.689 E68.31265
G0 F3600 X52.617 Y59.971
G1 F750 X50.027 Y57.381 E68.49539
G0 F3600 X49.744 Y57.663
G1 F750 X52.335 Y60.254 E68.6782
G0 F3600 X52.052 Y60.537
G1 F750 X49.461 Y57.946 E68.861
G0 F3600 X49.178 Y58.229
G1 F750 X51.769 Y60.82 E69.04381
G0 F3600 X51.486 Y61.103
G1 F750 X48.895 Y58.512 E69.22662
G0 F3600 X48.612 Y58.795
G1 F750 X51.203 Y61.386 E69.40943
G0 F3600 X50.92 Y61.668
G1 F750 X48.33 Y59.078 E69.59217
G0 F3600 X48.047 Y59.36
G1 F750 X50.638 Y61.951 E69.77498
G0 F3600 X50.355 Y62.234
G1 F750 X47.764 Y59.643 E69.95779
G0 F3600 X47.481 Y59.926
G1 F750 X50.072 Y62.517 E70.1406
G0 F3600 X49.789 Y62.8
G1 F750 X47.198 Y60.209 E70.32341
G0 F3600 X46.915 Y60.492
G1 F750 X49.506 Y63.083 E70.50621
G0 F3600 X49.223 Y63.365
G1 F750 X46.632 Y60.775 E70.68899
G0 F3600 X46.35 Y61.057
G1 F750 X48.94 Y63.648 E70.87176
G0 F3600 X48.658 Y63.931
G1 F750 X46.067 Y61.34 E71.05457
G0 F3600 X45.784 Y61.623
G1 F750 X48.375 Y64.214 E71.23738
G0 F3600 X48.092 Y64.497
G1 F750 X45.501 Y61.906 E71.42019
G0 F3600 X45.218 Y62.189
G1 F750 X47.809 Y64.78 E71.603
G0 F3600 X47.526 Y65.063
G1 F750 X44.935 Y62.472 E71.78581
G0 F3600 X44.653 Y62.755
G1 F750 X47.243 Y65.345 E71.96855
G0 F3600 X46.961 Y65.628
G1 F750 X44.37 Y63.037 E72.15136
G0 F3600 X44.087 Y63.32
G1 F750 X46.678 Y65.911 E72.33416
G0 F3600 X46.395 Y66.194
G1 F750 X43.804 Y63.603 E72.51697
G0 F3600 X43.521 Y63.886
G1 F750 X46.112 Y66.477 E72.69978
G0 F3600 X45.829 Y66.76
G1 F750 X43.238 Y64.169 E72.88259
G0 F3600 X42.956 Y64.452
G1 F750 X45.546 Y67.042 E73.06533
G0 F3600 X45.264 Y67.325
G1 F750 X42.673 Y64.734 E73.24814
G0 F3600 X42.39 Y65.017
G1 F750 X44.981 Y67.608 E73.43095
G0 F3600 X44.698 Y67.891
G1 F750 X42.107 Y65.3 E73.61376
G0 F3600 X41.824 Y65.583
G1 F750 X44.415 Y68.174 E73.79657
G0 F3600 X44.132 Y68.457
G1 F750 X41.541 Y65.866 E73.97938
G0 F3600 X41.258 Y66.149
G1 F750 X43.849 Y68.739 E74.16215
G0 F3600 X43.566 Y69.022
G1 F750 X40.976 Y66.431 E74.34492
G0 F3600 X40.693 Y66.714
G1 F750 X43.284 Y69.305 E74.52773
G0 F3600 X43.001 Y69.588
G1 F750 X40.41 Y66.997 E74.71054
G0 F3600 X40.127 Y67.28
G1 F750 X42.718 Y69.871 E74.89335
G0 F3600 X42.435 Y70.154
G1 F750 X39.844 Y67.563 E75.07616
G0 F3600 X39.561 Y67.846
G1 F750 X42.152 Y70.437 E75.25897
G0 F3600 X41.869 Y70.719
G1 F750 X39.279 Y68.129 E75.44171
G0 F3600 X38.996 Y68.411
G1 F750 X41.587 Y71.002 E75.62452
G0 F3600 X41.304 Y71.285
G1 F750 X38.713 Y68.694 E75.80732
G0 F3600 X38.43 Y68.977
G1 F750 X41.021 Y71.568 E75.99013
G0 F3600 X40.738 Y71.851
G1 F750 X38.147 Y69.26 E76.17294
G0 F3600 X37.864 Y69.543
G1 F750 X40.455 Y72.134 E76.35575
G0 F3600 X40.172 Y72.416
G1 F750 X37.582 Y69.826 E76.53849
G0 F3600 X37.299 Y70.108
G1 F750 X39.89 Y72.699 E76.7213
G0 F3600 X39.607 Y72.982
G1 F750 X37.016 Y70.391 E76.90411
G0 F3600 X36.733 Y70.674
G1 F750 X39.324 Y73.265 E77.08692
G0 F3600 X39.041 Y73.548
G1 F750 X36.45 Y70.957 E77.26973
G0 F3600 X36.167 Y71.24
G1 F750 X38.758 Y73.831 E77.45254
G0 F3600 X38.475 Y74.113
G1 F750 X35.884 Y71.523 E77.63531
G0 F3600 X35.602 Y71.805
G1 F750 X38.192 Y74.396 E77.81808
G0 F3600 X37.91 Y74.679
G1 F750 X35.319 Y72.088 E78.00089
G0 F3600 X35.036 Y72.371
G1 F750 X37.627 Y74.962 E78.1837
G0 F3600 X37.344 Y75.245
G1 F750 X34.753 Y72.654 E78.36651
G0 F3600 X34.47 Y72.937
G1 F750 X37.061 Y75.528 E78.54932
G0 F3600 X36.778 Y75.811
G1 F750 X34.187 Y73.22 E78.73213
G0 F3600 X33.905 Y73.503
G1 F750 X36.495 Y76.093 E78.91487
G0 F3600 X36.213 Y76.376
G1 F750 X33.622 Y73.785 E79.09768
G0 F3600 X33.339 Y74.068
G1 F750 X35.93 Y76.659 E79.28048
G0 F3600 X35.647 Y76.942
G1 F750 X33.056 Y74.351 E79.46329
G0 F3600 X32.773 Y74.634
G1 F750 X35.364 Y77.225 E79.6461
G0 F3600 X35.081 Y77.508
G1 F750 X32.49 Y74.917 E79.82891
G0 F3600 X32.208 Y75.2
G1 F750 X34.798 Y77.79 E80.01165
G0 F3600 X34.516 Y78.073
G1 F750 X31.925 Y75.482 E80.19446
G0 F3600 X31.642 Y75.765
G1 F750 X34.233 Y78.356 E80.37727
G0 F3600 X33.95 Y78.639
G1 F750 X31.359 Y76.048 E80.56008
G0 F3600 X31.076 Y76.331
G1 F750 X33.667 Y78.922 E80.74289
G0 F3600 X33.384 Y79.205
G1 F750 X30.793 Y76.614 E80.9257
G0 F3600 X30.51 Y76.897
G1 F750 X33.101 Y79.487 E81.10847
G0 F3600 X32.818 Y79.77
G1 F750 X30.228 Y77.179 E81.29124
G0 F3600 X29.945 Y77.462
G1 F750 X32.536 Y80.053 E81.47405
G0 F3600 X32.253 Y80.336
G1 F750 X29.662 Y77.745 E81.65686
G0 F3600 X29.379 Y78.028
G1 F750 X31.97 Y80.619 E81.83967
G0 F3600 X31.687 Y80.902
G1 F750 X29.096 Y78.311 E82.02248
G0 F3600 X28.813 Y78.594
G1 F750 X31.404 Y81.185 E82.20529
G0 F3600 X31.121 Y81.467
G1 F750 X28.531 Y78.877 E82.38803
G0 F3600 X28.248 Y79.159
G1 F750 X30.839 Y81.75 E82.57084
G0 F3600 X30.556 Y82.033
G1 F750 X27.965 Y79.442 E82.75364
G0 F3600 X27.682 Y79.725
G1 F750 X30.273 Y82.316 E82.93645
G0 F3600 X29.99 Y82.599
G1 F750 X27.399 Y80.008 E83.11926
G0 F3600 X27.116 Y80.291
G1 F750 X29.707 Y82.882 E83.30207
G0 F3600 X29.424 Y83.164
G1 F750 X26.833 Y80.574 E83.48485
G0 F3600 X26.551 Y80.856
G1 F750 X29.141 Y83.447 E83.66762
G0 F3600 X28.859 Y83.73
G1 F750 X26.268 Y81.139 E83.85043
G0 F3600 X25.985 Y81.422
G1 F750 X28.576 Y84.013 E84.03324
G0 F3600 X28.293 Y84.296
G1 F750 X25.702 Y81.705 E84.21605
G0 F3600 X25.419 Y81.988
G1 F750 X28.01 Y84.579 E84.39886
G0 F3600 X27.727 Y84.862
